;FLAVOR:Marlin
;TIME:49112
;Filament used: 30.8237m
;Layer height: 0.16
;MINX:36.523
;MINY:74.624
;MINZ:0.2
;MAXX:263.477
;MAXY:225.376
;MAXZ:12.72
;TARGET_MACHINE.NAME:Creality CR-10S
;Generated with Cura_SteamEngine 5.8.0
M140 S60
M105
M190 S60
M104 S210
M105
M109 S210
M82 ;absolute extrusion mode
M220 S100 ;Reset Feedrate
M221 S100 ;Reset Flowrate

M280 P0 S160 ;reset bltouch
G28 ;Home
G29 A ; enable UBL
G92 E0 ;Reset Extruder
G1 Z2.0 F3000 ;Move Z Axis up
G1 X10.1 Y20 Z0.28 F5000.0 ;Move to start position
G1 X10.1 Y200.0 Z0.28 F1500.0 E15 ;Draw the first line
G1 X10.4 Y200.0 Z0.28 F5000.0 ;Move to side a little
G1 X10.4 Y20 Z0.28 F1500.0 E30 ;Draw the second line
G92 E0 ;Reset Extruder
G1 Z2.0 F3000 ;Move Z Axis up
G92 E0
G92 E0
G1 F2400 E-1.5
;LAYER_COUNT:68
;LAYER:0
M107
G0 F6000 X40.06 Y76.309 Z0.2
;TYPE:SKIRT
G1 F2400 E0
G1 F1200 X41.549 Y75.511 E0.05619
G1 X43.124 Y74.906 E0.1123
G1 X44.297 Y74.624 E0.15243
G1 X256.051 Y74.624 E7.1954
G1 X258.23 Y75.408 E7.27242
G1 X259.804 Y76.173 E7.33063
G1 X261.791 Y78.16 E7.42409
G1 X262.589 Y79.649 E7.48028
G1 X263.194 Y81.224 E7.53639
G1 X263.476 Y82.397 E7.57652
G1 X263.477 Y217.948 E12.08496
G1 X262.692 Y220.13 E12.16209
G1 X261.927 Y221.704 E12.2203
G1 X259.948 Y223.683 E12.31338
G1 X258.52 Y224.46 E12.36746
G1 X256.848 Y225.151 E12.42763
G1 X255.825 Y225.321 E12.46212
G1 X43.949 Y225.376 E19.50914
G1 X41.77 Y224.592 E19.58617
G1 X40.196 Y223.827 E19.64437
G1 X38.209 Y221.84 E19.73784
G1 X37.411 Y220.351 E19.79402
G1 X36.806 Y218.776 E19.85014
G1 X36.524 Y217.603 E19.89027
G1 X36.523 Y82.052 E24.39871
G1 X37.308 Y79.87 E24.47584
G1 X38.073 Y78.296 E24.53405
G1 X40.06 Y76.309 E24.62751
G0 F6000 X40.301 Y76.634
G1 F1200 X41.738 Y75.864 E24.68173
G1 X43.218 Y75.295 E24.73447
G1 X44.345 Y75.024 E24.77302
G1 X255.98 Y75.024 E31.81203
G1 X258.055 Y75.768 E31.88535
G1 X259.569 Y76.504 E31.94134
G1 X261.466 Y78.401 E32.03057
G1 X262.236 Y79.838 E32.08479
G1 X262.805 Y81.318 E32.13753
G1 X263.076 Y82.445 E32.17608
G1 X263.077 Y217.877 E36.68057
G1 X262.332 Y219.955 E36.75399
G1 X261.596 Y221.469 E36.80998
G1 X259.704 Y223.361 E36.89898
G1 X258.367 Y224.09 E36.94963
G1 X256.737 Y224.764 E37.00829
G1 X255.76 Y224.926 E37.04123
G1 X44.02 Y224.976 E44.08373
G1 X41.945 Y224.232 E44.15705
G1 X40.431 Y223.496 E44.21304
G1 X38.534 Y221.599 E44.30227
G1 X37.764 Y220.162 E44.35649
G1 X37.195 Y218.682 E44.40923
G1 X36.924 Y217.555 E44.44778
G1 X36.923 Y82.123 E48.95227
G1 X37.668 Y80.045 E49.02569
G1 X38.404 Y78.531 E49.08168
G1 X40.301 Y76.634 E49.17091
G0 F6000 X40.542 Y76.959
G1 F1200 X41.927 Y76.217 E49.22317
G1 X43.312 Y75.684 E49.27253
G1 X44.393 Y75.424 E49.30951
G1 X255.909 Y75.424 E56.34456
G1 X257.88 Y76.128 E56.41417
G1 X259.334 Y76.835 E56.46795
G1 X261.141 Y78.642 E56.55294
G1 X261.883 Y80.027 E56.6052
G1 X262.416 Y81.412 E56.65456
G1 X262.676 Y82.493 E56.69154
G1 X262.677 Y217.806 E61.19207
G1 X261.972 Y219.78 E61.26178
G1 X261.265 Y221.234 E61.31556
G1 X259.461 Y223.038 E61.40041
G1 X258.214 Y223.72 E61.44769
G1 X256.627 Y224.376 E61.5048
G1 X255.694 Y224.531 E61.53626
G1 X44.091 Y224.576 E68.5742
G1 X42.12 Y223.872 E68.64382
G1 X40.666 Y223.165 E68.69759
G1 X38.859 Y221.358 E68.78259
G1 X38.117 Y219.973 E68.83484
G1 X37.584 Y218.588 E68.8842
G1 X37.324 Y217.507 E68.92118
G1 X37.323 Y82.194 E73.42171
G1 X38.028 Y80.22 E73.49143
G1 X38.735 Y78.766 E73.5452
G1 X40.542 Y76.959 E73.6302
G0 F6000 X40.784 Y77.283
G1 F1200 X42.072 Y76.59 E73.67885
G1 X43.406 Y76.073 E73.72643
G1 X44.441 Y75.824 E73.76184
G1 X255.839 Y75.824 E80.79296
G1 X257.705 Y76.488 E80.85884
G1 X259.099 Y77.166 E80.9104
G1 X260.817 Y78.884 E80.9912
G1 X261.51 Y80.172 E81.03985
G1 X262.027 Y81.506 E81.08744
G1 X262.276 Y82.541 E81.12284
G1 X262.277 Y217.736 E85.61945
G1 X261.612 Y219.605 E85.68543
G1 X260.934 Y220.999 E85.73698
G1 X259.218 Y222.715 E85.8177
G1 X258.061 Y223.35 E85.8616
G1 X256.516 Y223.989 E85.91721
G1 X255.629 Y224.136 E85.94711
G1 X44.161 Y224.176 E92.98056
G1 X42.295 Y223.512 E93.04644
G1 X40.901 Y222.834 E93.098
G1 X39.183 Y221.116 E93.17881
G1 X38.49 Y219.828 E93.22745
G1 X37.973 Y218.494 E93.27504
G1 X37.724 Y217.459 E93.31044
G1 X37.723 Y82.264 E97.80705
G1 X38.388 Y80.395 E97.87303
G1 X39.066 Y79.001 E97.92459
G1 X40.784 Y77.283 E98.0054
G0 F6000 X41.026 Y77.607
G1 F1200 X42.217 Y76.963 E98.05043
G1 X43.5 Y76.462 E98.09624
G1 X44.489 Y76.224 E98.13007
G1 X255.77 Y76.224 E105.15731
G1 X257.53 Y76.848 E105.21942
G1 X258.864 Y77.497 E105.26876
G1 X260.493 Y79.126 E105.34538
G1 X261.137 Y80.317 E105.39041
G1 X261.638 Y81.6 E105.43622
G1 X261.876 Y82.589 E105.47006
G1 X261.877 Y217.667 E109.96277
G1 X261.252 Y219.43 E110.02498
G1 X260.603 Y220.764 E110.07432
G1 X258.974 Y222.393 E110.15095
G1 X257.908 Y222.98 E110.19142
G1 X256.406 Y223.601 E110.24548
G1 X255.563 Y223.741 E110.2739
G1 X44.23 Y223.776 E117.30287
G1 X42.47 Y223.152 E117.36498
G1 X41.136 Y222.503 E117.41432
G1 X39.507 Y220.874 E117.49094
G1 X38.863 Y219.683 E117.53597
G1 X38.362 Y218.4 E117.58178
G1 X38.124 Y217.411 E117.61562
G1 X38.123 Y82.333 E122.10833
G1 X38.748 Y80.57 E122.17054
G1 X39.397 Y79.236 E122.21988
G1 X41.026 Y77.607 E122.29651
G0 F6000 X41.269 Y77.93
G1 F1200 X42.362 Y77.336 E122.33788
G1 X43.645 Y76.835 E122.38369
G1 X44.535 Y76.624 E122.41412
G1 X255.702 Y76.624 E129.43756
G1 X257.355 Y77.208 E129.49587
G1 X258.629 Y77.828 E129.54299
G1 X260.17 Y79.369 E129.61548
G1 X260.764 Y80.462 E129.65685
G1 X261.265 Y81.745 E129.70266
G1 X261.476 Y82.635 E129.73308
G1 X261.477 Y217.599 E134.222
G1 X260.892 Y219.255 E134.28042
G1 X260.272 Y220.529 E134.32754
G1 X258.731 Y222.07 E134.40003
G1 X257.755 Y222.61 E134.43713
G1 X256.295 Y223.214 E134.48968
G1 X255.498 Y223.346 E134.51655
G1 X44.298 Y223.376 E141.54109
G1 X42.645 Y222.792 E141.5994
G1 X41.371 Y222.172 E141.64652
G1 X39.83 Y220.631 E141.71901
G1 X39.236 Y219.538 E141.76038
G1 X38.735 Y218.255 E141.80619
G1 X38.524 Y217.365 E141.83661
G1 X38.523 Y82.401 E146.32554
G1 X39.108 Y80.745 E146.38395
G1 X39.728 Y79.471 E146.43107
G1 X41.269 Y77.93 E146.50356
G0 F6000 X41.511 Y78.254
G1 F1200 X42.507 Y77.709 E146.54132
G1 X43.79 Y77.208 E146.58713
G1 X44.583 Y77.024 E146.61421
G1 X255.634 Y77.024 E153.63379
G1 X257.18 Y77.568 E153.6883
G1 X258.394 Y78.159 E153.73321
G1 X259.846 Y79.611 E153.80151
G1 X260.391 Y80.607 E153.83927
G1 X260.892 Y81.89 E153.88508
G1 X261.076 Y82.683 E153.91216
G1 X261.077 Y217.531 E158.39722
G1 X260.532 Y219.08 E158.45184
G1 X259.941 Y220.294 E158.49674
G1 X258.488 Y221.747 E158.56509
G1 X257.602 Y222.24 E158.59881
G1 X256.184 Y222.827 E158.64986
G1 X255.433 Y222.951 E158.67517
G1 X44.366 Y222.976 E165.69529
G1 X42.82 Y222.432 E165.7498
G1 X41.606 Y221.841 E165.79471
G1 X40.154 Y220.389 E165.86301
G1 X39.609 Y219.393 E165.90077
G1 X39.108 Y218.11 E165.94658
G1 X38.924 Y217.317 E165.97366
G1 X38.923 Y82.469 E170.45872
G1 X39.468 Y80.92 E170.51333
G1 X40.059 Y79.706 E170.55824
G1 X41.511 Y78.254 E170.62654
G0 F6000 X41.755 Y78.576
G1 F1200 X42.654 Y78.081 E170.66067
G1 X43.88 Y77.598 E170.7045
G1 X44.63 Y77.424 E170.73011
G1 X255.567 Y77.424 E177.7459
G1 X257.005 Y77.928 E177.79658
G1 X258.159 Y78.49 E177.83927
G1 X259.524 Y79.855 E177.90348
G1 X260.019 Y80.754 E177.93761
G1 X260.502 Y81.98 E177.98144
G1 X260.676 Y82.73 E178.00705
G1 X260.677 Y217.464 E182.48832
G1 X260.172 Y218.905 E182.53911
G1 X259.61 Y220.059 E182.5818
G1 X258.246 Y221.423 E182.64596
G1 X257.407 Y221.89 E182.67789
G1 X256.075 Y222.439 E182.72581
G1 X255.368 Y222.556 E182.74965
G1 X44.433 Y222.576 E189.76537
G1 X42.995 Y222.072 E189.81605
G1 X41.841 Y221.51 E189.85874
G1 X40.476 Y220.145 E189.92295
G1 X39.981 Y219.246 E189.95708
G1 X39.498 Y218.02 E190.00091
G1 X39.324 Y217.27 E190.02652
G1 X39.323 Y82.536 E194.50779
G1 X39.828 Y81.095 E194.55858
G1 X40.39 Y79.941 E194.60127
G1 X41.755 Y78.576 E194.66547
G0 F6000 X41.998 Y78.899
G1 F1200 X42.802 Y78.453 E194.69605
G1 X43.97 Y77.988 E194.73787
G1 X44.677 Y77.824 E194.762
G1 X255.498 Y77.824 E201.77394
G1 X256.83 Y78.288 E201.82085
G1 X257.924 Y78.821 E201.86133
G1 X259.201 Y80.098 E201.92139
G1 X259.647 Y80.902 E201.95197
G1 X260.112 Y82.07 E201.99379
G1 X260.276 Y82.777 E202.01793
G1 X260.277 Y217.395 E206.49534
G1 X259.812 Y218.73 E206.54236
G1 X259.279 Y219.824 E206.58283
G1 X258.001 Y221.102 E206.64295
G1 X257.254 Y221.52 E206.67142
G1 X255.964 Y222.052 E206.71783
G1 X255.303 Y222.161 E206.74011
G1 X44.502 Y222.176 E213.75138
G1 X43.17 Y221.712 E213.79829
G1 X42.076 Y221.179 E213.83877
G1 X40.799 Y219.902 E213.89884
G1 X40.353 Y219.098 E213.92942
G1 X39.888 Y217.93 E213.97123
G1 X39.724 Y217.223 E213.99537
G1 X39.723 Y82.605 E218.47278
G1 X40.188 Y81.27 E218.5198
G1 X40.721 Y80.176 E218.56028
G1 X41.998 Y78.899 E218.62034
G0 F6000 X42.242 Y79.221
G1 F1200 X42.95 Y78.825 E218.64732
G1 X44.118 Y78.36 E218.68914
G1 X44.722 Y78.224 E218.70973
G1 X255.429 Y78.224 E225.71787
G1 X256.698 Y78.666 E225.76257
G1 X257.688 Y79.151 E225.79923
G1 X258.879 Y80.342 E225.85525
G1 X259.275 Y81.05 E225.88223
G1 X259.74 Y82.218 E225.92405
G1 X259.876 Y82.822 E225.94464
G1 X259.877 Y217.326 E230.41826
G1 X259.434 Y218.598 E230.46306
G1 X258.949 Y219.588 E230.49973
G1 X257.755 Y220.782 E230.55589
G1 X257.102 Y221.15 E230.58082
G1 X255.855 Y221.664 E230.62568
G1 X255.238 Y221.766 E230.64648
G1 X44.571 Y221.776 E237.65329
G1 X43.302 Y221.334 E237.69799
G1 X42.312 Y220.849 E237.73465
G1 X41.121 Y219.658 E237.79067
G1 X40.725 Y218.95 E237.81766
G1 X40.26 Y217.782 E237.85947
G1 X40.124 Y217.178 E237.88006
G1 X40.123 Y82.674 E242.35368
G1 X40.566 Y81.402 E242.39848
G1 X41.051 Y80.412 E242.43515
G1 X42.242 Y79.221 E242.49117
G0 F6000 X42.487 Y79.542
G1 F1200 X43.098 Y79.197 E242.51451
G1 X44.266 Y78.732 E242.55632
G1 X44.766 Y78.624 E242.57333
G1 X255.36 Y78.624 E249.57772
G1 X256.566 Y79.044 E249.62019
G1 X257.452 Y79.481 E249.65305
G1 X258.558 Y80.587 E249.70507
G1 X258.903 Y81.198 E249.72841
G1 X259.368 Y82.366 E249.77022
G1 X259.476 Y82.866 E249.78724
G1 X259.477 Y217.257 E254.2571
G1 X259.056 Y218.466 E254.29968
G1 X258.619 Y219.352 E254.33254
G1 X257.511 Y220.46 E254.38466
G1 X256.949 Y220.78 E254.40617
G1 X255.744 Y221.277 E254.44952
G1 X255.173 Y221.371 E254.46877
G1 X44.64 Y221.376 E261.47112
G1 X43.434 Y220.956 E261.5136
G1 X42.548 Y220.519 E261.54646
G1 X41.442 Y219.413 E261.59848
G1 X41.097 Y218.802 E261.62182
G1 X40.632 Y217.634 E261.66363
G1 X40.524 Y217.134 E261.68064
G1 X40.523 Y82.743 E266.15051
G1 X40.944 Y81.534 E266.19309
G1 X41.381 Y80.648 E266.22594
G1 X42.487 Y79.542 E266.27797
G0 F6000 X42.733 Y79.862
G1 F1200 X43.248 Y79.568 E266.29769
G1 X44.351 Y79.123 E266.33725
G1 X44.809 Y79.024 E266.35283
G1 X255.292 Y79.024 E273.35353
G1 X256.389 Y79.403 E273.39213
G1 X257.216 Y79.811 E273.4228
G1 X258.238 Y80.833 E273.47087
G1 X258.532 Y81.348 E273.4906
G1 X258.977 Y82.451 E273.53016
G1 X259.076 Y82.909 E273.54574
G1 X259.077 Y217.189 E278.01191
G1 X258.697 Y218.289 E278.05062
G1 X258.289 Y219.116 E278.08129
G1 X257.267 Y220.138 E278.12936
G1 X256.751 Y220.432 E278.14911
G1 X255.635 Y220.889 E278.18922
G1 X255.108 Y220.976 E278.20699
G1 X44.708 Y220.976 E285.20492
G1 X43.611 Y220.597 E285.24352
G1 X42.784 Y220.189 E285.2742
G1 X41.762 Y219.167 E285.32227
G1 X41.468 Y218.652 E285.34199
G1 X41.023 Y217.549 E285.38155
G1 X40.924 Y217.091 E285.39714
G1 X40.923 Y82.811 E289.86331
G1 X41.303 Y81.711 E289.90201
G1 X41.711 Y80.884 E289.93269
G1 X42.733 Y79.862 E289.98076
G0 F6000 X42.978 Y80.183
G1 F1200 X43.4 Y79.938 E289.99699
G1 X44.436 Y79.514 E290.03422
G1 X44.852 Y79.424 E290.04837
G1 X255.226 Y79.424 E297.04544
G1 X256.212 Y79.762 E297.08011
G1 X256.98 Y80.141 E297.1086
G1 X257.917 Y81.078 E297.15267
G1 X258.162 Y81.5 E297.1689
G1 X258.586 Y82.536 E297.20613
G1 X258.676 Y82.952 E297.22029
G1 X258.677 Y217.123 E301.68283
G1 X258.338 Y218.112 E301.71761
G1 X257.959 Y218.88 E301.74609
G1 X257.022 Y219.817 E301.79016
G1 X256.6 Y220.062 E301.80639
G1 X255.527 Y220.501 E301.84495
G1 X255.108 Y220.576 E301.85911
G1 X44.774 Y220.576 E308.85485
G1 X43.788 Y220.238 E308.88952
G1 X43.02 Y219.859 E308.918
G1 X42.083 Y218.922 E308.96207
G1 X41.838 Y218.5 E308.9783
G1 X41.414 Y217.464 E309.01554
G1 X41.324 Y217.048 E309.02969
G1 X41.323 Y82.877 E313.49224
G1 X41.662 Y81.888 E313.52701
G1 X42.041 Y81.12 E313.5555
G1 X42.978 Y80.183 E313.59957
G0 F6000 X43.225 Y80.502
G1 F1200 X43.552 Y80.308 E313.61221
G1 X44.588 Y79.884 E313.64945
G1 X44.892 Y79.824 E313.65975
G1 X255.159 Y79.824 E320.65326
G1 X256.035 Y80.121 E320.68403
G1 X256.744 Y80.471 E320.71032
G1 X257.598 Y81.325 E320.75049
G1 X257.792 Y81.652 E320.76314
G1 X258.216 Y82.688 E320.80037
G1 X258.276 Y82.992 E320.81068
G1 X258.277 Y217.056 E325.26966
G1 X257.979 Y217.935 E325.30053
G1 X257.629 Y218.644 E325.32683
G1 X256.775 Y219.498 E325.367
G1 X256.448 Y219.692 E325.37965
G1 X255.412 Y220.116 E325.41688
G1 X255.108 Y220.176 E325.42719
G1 X44.841 Y220.176 E332.4207
G1 X43.965 Y219.879 E332.45146
G1 X43.256 Y219.529 E332.47776
G1 X42.402 Y218.675 E332.51793
G1 X42.208 Y218.348 E332.53057
G1 X41.784 Y217.312 E332.56781
G1 X41.724 Y217.008 E332.57811
G1 X41.723 Y82.944 E337.0371
G1 X42.021 Y82.065 E337.06797
G1 X42.371 Y81.356 E337.09427
G1 X43.225 Y80.502 E337.13444
G0 F6000 X43.473 Y80.82
G1 F1200 X43.704 Y80.678 E337.14345
G1 X44.74 Y80.254 E337.18069
G1 X44.892 Y80.224 E337.18584
G1 X255.094 Y80.224 E344.17719
G1 X255.858 Y80.48 E344.20399
G1 X256.508 Y80.801 E344.2281
G1 X257.28 Y81.573 E344.26441
G1 X257.422 Y81.804 E344.27343
G1 X257.846 Y82.84 E344.31066
G1 X257.876 Y82.992 E344.31581
G1 X257.877 Y216.991 E348.77264
G1 X257.62 Y217.758 E348.79954
G1 X257.299 Y218.408 E348.82365
G1 X256.527 Y219.18 E348.85997
G1 X256.296 Y219.322 E348.86899
G1 X255.26 Y219.746 E348.90622
G1 X255.108 Y219.776 E348.91137
G1 X44.906 Y219.776 E355.90272
G1 X44.142 Y219.52 E355.92952
G1 X43.492 Y219.199 E355.95363
G1 X42.72 Y218.427 E355.98994
G1 X42.578 Y218.196 E355.99896
G1 X42.154 Y217.16 E356.03619
G1 X42.124 Y217.008 E356.04134
G1 X42.123 Y83.009 E360.49817
G1 X42.38 Y82.242 E360.52507
G1 X42.701 Y81.592 E360.54919
G1 X43.473 Y80.82 E360.5855
G0 F6000 X43.724 Y81.135
G1 F1200 X43.856 Y81.048 E360.59076
G1 X44.892 Y80.624 E360.62799
G1 X255.029 Y80.624 E367.61717
G1 X255.681 Y80.839 E367.64001
G1 X256.272 Y81.131 E367.66193
G1 X256.965 Y81.824 E367.69453
G1 X257.052 Y81.956 E367.69979
G1 X257.476 Y82.992 E367.73702
G1 X257.477 Y216.926 E372.19168
G1 X257.261 Y217.581 E372.21462
G1 X256.969 Y218.172 E372.23655
G1 X256.276 Y218.865 E372.26914
G1 X256.144 Y218.952 E372.2744
G1 X255.108 Y219.376 E372.31163
G1 X44.971 Y219.376 E379.30082
G1 X44.319 Y219.161 E379.32365
G1 X43.728 Y218.869 E379.34558
G1 X43.035 Y218.176 E379.37817
G1 X42.948 Y218.044 E379.38343
G1 X42.524 Y217.008 E379.42066
G1 X42.523 Y83.074 E383.87533
G1 X42.739 Y82.419 E383.89826
G1 X43.031 Y81.828 E383.92019
G1 X43.724 Y81.135 E383.95279
G0 F6000 X44.007 Y81.418
G1 F1200 X44.97 Y81.024 E383.98739
G1 X254.965 Y81.024 E390.97186
G1 X255.556 Y81.219 E390.99255
G1 X256.034 Y81.459 E391.01034
G1 X256.682 Y82.107 E391.04082
G1 X257.076 Y83.07 E391.07543
G1 X257.077 Y216.862 E395.52537
G1 X256.881 Y217.456 E395.54617
G1 X256.641 Y217.934 E395.56396
G1 X255.993 Y218.582 E395.59444
G1 X255.03 Y218.976 E395.62905
G1 X45.035 Y218.976 E402.61351
G1 X44.444 Y218.781 E402.63421
G1 X43.966 Y218.541 E402.652
G1 X43.318 Y217.893 E402.68248
G1 X42.924 Y216.93 E402.71709
G1 X42.923 Y83.138 E407.16703
G1 X43.119 Y82.544 E407.18783
G1 X43.359 Y82.066 E407.20562
G1 X44.007 Y81.418 E407.2361
G0 F6000 X44.234 Y81.757
G1 F1200 X45.048 Y81.424 E407.26535
G1 X254.901 Y81.424 E414.24509
G1 X255.376 Y81.576 E414.26168
G1 X255.796 Y81.787 E414.27731
G1 X256.343 Y82.334 E414.30304
G1 X256.676 Y83.148 E414.33229
G1 X256.677 Y216.798 E418.77751
G1 X256.524 Y217.276 E418.7942
G1 X256.313 Y217.696 E418.80984
G1 X255.766 Y218.243 E418.83557
G1 X254.952 Y218.576 E418.86482
G1 X45.099 Y218.576 E425.84456
G1 X44.624 Y218.424 E425.86115
G1 X44.204 Y218.213 E425.87678
G1 X43.657 Y217.666 E425.90251
G1 X43.324 Y216.852 E425.93176
