;FLAVOR:Marlin
;TIME:7361
;Filament used: 5.10849m
;Layer height: 0.2
;MINX:75.5
;MINY:107.25
;MINZ:0.2
;MAXX:224.5
;MAXY:192.75
;MAXZ:3.2
;TARGET_MACHINE.NAME:Creality CR-10S
;Generated with Cura_SteamEngine 5.8.0
M140 S60
M105
M190 S60
M104 S210
M105
M109 S210
M82 ;absolute extrusion mode
M220 S100 ;Reset Feedrate
M221 S100 ;Reset Flowrate

M280 P0 S160 ;reset bltouch
G28 ;Home
G29 A ; enable UBL
G92 E0 ;Reset Extruder
G1 Z2.0 F3000 ;Move Z Axis up
G1 X10.1 Y20 Z0.28 F5000.0 ;Move to start position
G1 X10.1 Y200.0 Z0.28 F1500.0 E15 ;Draw the first line
G1 X10.4 Y200.0 Z0.28 F5000.0 ;Move to side a little
G1 X10.4 Y20 Z0.28 F1500.0 E30 ;Draw the second line
G92 E0 ;Reset Extruder
G1 Z2.0 F3000 ;Move Z Axis up
G92 E0
G92 E0
G1 F2400 E-1.5
;LAYER_COUNT:16
;LAYER:0
M107
G0 F6000 X79.692 Y109.626 Z0.2
;TYPE:SKIRT
G1 F2400 E0
G1 F1200 X80.424 Y109.096 E0.03006
G1 X81.321 Y108.561 E0.0648
G1 X82.199 Y108.14 E0.09718
G1 X83.112 Y107.798 E0.12961
G1 X84.049 Y107.539 E0.16194
G1 X85.016 Y107.361 E0.19465
G1 X86.155 Y107.265 E0.23266
G1 X86.812 Y107.25 E0.25452
G1 X212.804 Y107.25 E4.44503
G1 X213.684 Y107.263 E4.4743
G1 X214.656 Y107.322 E4.50669
G1 X215.619 Y107.468 E4.53909
G1 X216.566 Y107.699 E4.57151
G1 X217.454 Y107.999 E4.60268
G1 X218.346 Y108.389 E4.63506
G1 X219.229 Y108.876 E4.6686
G1 X219.98 Y109.378 E4.69865
G1 X220.795 Y110.036 E4.73349
G1 X221.493 Y110.714 E4.76585
G1 X222.129 Y111.451 E4.79823
G1 X222.699 Y112.241 E4.83063
G1 X223.161 Y113.017 E4.86067
G1 X223.615 Y113.959 E4.89545
G1 X223.944 Y114.837 E4.92663
G1 X224.213 Y115.809 E4.96018
G1 X224.39 Y116.775 E4.99284
G1 X224.485 Y117.905 E5.03056
G1 X224.5 Y118.58 E5.05301
G1 X224.499 Y181.15 E7.1341
G1 X224.488 Y181.913 E7.15948
G1 X224.431 Y182.886 E7.1919
G1 X224.286 Y183.849 E7.22429
G1 X224.057 Y184.795 E7.25666
G1 X223.746 Y185.719 E7.28909
G1 X223.354 Y186.61 E7.32146
G1 X222.886 Y187.462 E7.3538
G1 X222.364 Y188.243 E7.38504
G1 X221.731 Y189.028 E7.41858
G1 X221.106 Y189.679 E7.4486
G1 X220.317 Y190.367 E7.48341
G1 X219.557 Y190.917 E7.51462
G1 X218.69 Y191.434 E7.54819
G1 X217.812 Y191.856 E7.58059
G1 X216.901 Y192.198 E7.61296
G1 X215.962 Y192.459 E7.64537
G1 X214.996 Y192.637 E7.67804
G1 X213.845 Y192.735 E7.71646
G1 X213.17 Y192.75 E7.73892
G1 X87.064 Y192.749 E11.93322
G1 X86.331 Y192.738 E11.9576
G1 X85.359 Y192.681 E11.98999
G1 X84.396 Y192.535 E12.02238
G1 X83.45 Y192.306 E12.05476
G1 X82.526 Y191.994 E12.08719
G1 X81.636 Y191.602 E12.11954
G1 X80.813 Y191.151 E12.15075
G1 X79.974 Y190.59 E12.18432
G1 X79.27 Y190.024 E12.21437
G1 X78.517 Y189.299 E12.24913
G1 X77.88 Y188.563 E12.28151
G1 X77.35 Y187.832 E12.31154
G1 X76.814 Y186.935 E12.34629
G1 X76.392 Y186.057 E12.37869
G1 X76.05 Y185.145 E12.41109
G1 X75.79 Y184.207 E12.44346
G1 X75.612 Y183.238 E12.47623
G1 X75.514 Y182.059 E12.51558
G1 X75.5 Y181.408 E12.53724
G1 X75.501 Y118.775 E14.62042
G1 X75.512 Y118.075 E14.6437
G1 X75.57 Y117.102 E14.67612
G1 X75.716 Y116.139 E14.70852
G1 X75.946 Y115.193 E14.7409
G1 X76.259 Y114.27 E14.77332
G1 X76.651 Y113.38 E14.80566
G1 X77.121 Y112.527 E14.83805
G1 X77.664 Y111.719 E14.87043
G1 X78.231 Y111.015 E14.9005
G1 X78.956 Y110.263 E14.93524
G1 X79.692 Y109.626 E14.96762
G0 F6000 X79.927 Y109.95
G1 F1200 X80.659 Y109.42 E14.99767
G1 X81.495 Y108.921 E15.03006
G1 X82.34 Y108.514 E15.06125
G1 X83.219 Y108.183 E15.09249
G1 X84.122 Y107.932 E15.12366
G1 X85.05 Y107.76 E15.15505
G1 X86.189 Y107.664 E15.19307
G1 X86.821 Y107.65 E15.2141
G1 X212.798 Y107.65 E19.40411
G1 X213.66 Y107.662 E19.43278
G1 X214.597 Y107.718 E19.464
G1 X215.525 Y107.857 E19.49521
G1 X216.438 Y108.078 E19.52646
G1 X217.294 Y108.366 E19.5565
G1 X218.186 Y108.756 E19.58888
G1 X219.007 Y109.209 E19.62006
G1 X219.758 Y109.711 E19.65011
G1 X220.517 Y110.323 E19.68254
G1 X221.191 Y110.976 E19.71375
G1 X221.805 Y111.685 E19.74494
G1 X222.355 Y112.446 E19.77617
G1 X222.817 Y113.222 E19.80621
G1 X223.24 Y114.099 E19.8386
G1 X223.569 Y114.977 E19.86978
G1 X223.82 Y115.882 E19.90102
G1 X223.991 Y116.809 E19.93237
G1 X224.086 Y117.939 E19.97009
G1 X224.1 Y118.58 E19.99141
G1 X224.099 Y181.145 E22.07233
G1 X224.089 Y181.89 E22.09711
G1 X224.035 Y182.827 E22.12833
G1 X223.897 Y183.756 E22.15957
G1 X223.678 Y184.668 E22.19076
G1 X223.38 Y185.558 E22.22198
G1 X223.003 Y186.418 E22.25321
G1 X222.553 Y187.24 E22.28438
G1 X222.031 Y188.021 E22.31562
G1 X221.442 Y188.751 E22.34682
G1 X220.817 Y189.402 E22.37684
G1 X220.082 Y190.043 E22.40927
G1 X219.322 Y190.593 E22.44048
G1 X218.516 Y191.074 E22.4717
G1 X217.671 Y191.482 E22.5029
G1 X216.793 Y191.813 E22.53411
G1 X215.889 Y192.066 E22.56534
G1 X214.962 Y192.238 E22.59669
G1 X213.811 Y192.336 E22.63511
G1 X213.17 Y192.35 E22.65644
G1 X87.07 Y192.349 E26.85054
G1 X86.354 Y192.339 E26.87436
G1 X85.418 Y192.285 E26.90554
G1 X84.489 Y192.146 E26.93679
G1 X83.577 Y191.927 E26.96798
G1 X82.687 Y191.628 E26.99921
G1 X81.828 Y191.251 E27.03041
G1 X81.005 Y190.8 E27.06162
G1 X80.225 Y190.278 E27.09284
G1 X79.521 Y189.712 E27.12288
G1 X78.819 Y189.037 E27.15527
G1 X78.204 Y188.328 E27.18649
G1 X77.674 Y187.597 E27.21652
G1 X77.174 Y186.761 E27.24892
G1 X76.766 Y185.916 E27.28013
G1 X76.435 Y185.038 E27.31134
G1 X76.183 Y184.134 E27.34255
G1 X76.011 Y183.205 E27.37398
G1 X75.913 Y182.026 E27.41333
G1 X75.9 Y181.408 E27.43389
G1 X75.901 Y118.781 E29.51687
G1 X75.911 Y118.098 E29.53959
G1 X75.966 Y117.161 E29.57081
G1 X76.105 Y116.233 E29.60202
G1 X76.325 Y115.321 E29.63322
G1 X76.625 Y114.431 E29.66446
G1 X77.002 Y113.572 E29.69566
G1 X77.453 Y112.75 E29.72684
G1 X77.976 Y111.97 E29.75808
G1 X78.543 Y111.266 E29.78814
G1 X79.218 Y110.565 E29.82051
G1 X79.927 Y109.95 E29.85173
G0 F6000 X80.162 Y110.274
G1 F1200 X80.894 Y109.744 E29.88178
G1 X81.669 Y109.281 E29.91181
G1 X82.482 Y108.888 E29.94184
G1 X83.327 Y108.568 E29.9719
G1 X84.196 Y108.325 E30.00191
G1 X85.084 Y108.159 E30.03196
G1 X86.223 Y108.063 E30.06997
G1 X86.83 Y108.05 E30.09017
G1 X212.793 Y108.05 E34.27971
G1 X213.637 Y108.061 E34.30779
G1 X214.539 Y108.114 E34.33784
G1 X215.432 Y108.246 E34.36786
G1 X216.31 Y108.457 E34.3979
G1 X217.166 Y108.745 E34.42794
G1 X217.993 Y109.107 E34.45796
G1 X218.785 Y109.542 E34.48802
G1 X219.536 Y110.044 E34.51806
G1 X220.239 Y110.611 E34.5481
G1 X220.889 Y111.238 E34.57814
G1 X221.481 Y111.92 E34.60818
G1 X222.011 Y112.651 E34.63821
G1 X222.473 Y113.427 E34.66824
G1 X222.866 Y114.24 E34.69828
G1 X223.184 Y115.085 E34.72831
G1 X223.427 Y115.955 E34.75835
G1 X223.592 Y116.843 E34.78839
G1 X223.687 Y117.973 E34.82611
G1 X223.7 Y118.58 E34.8463
G1 X223.699 Y181.14 E36.92706
G1 X223.69 Y181.867 E36.95124
G1 X223.639 Y182.769 E36.98129
G1 X223.508 Y183.663 E37.01134
G1 X223.299 Y184.541 E37.04136
G1 X223.013 Y185.398 E37.07141
G1 X222.652 Y186.226 E37.10145
G1 X222.22 Y187.018 E37.13145
G1 X221.719 Y187.77 E37.16151
G1 X221.153 Y188.474 E37.19155
G1 X220.528 Y189.125 E37.22157
G1 X219.847 Y189.719 E37.25162
G1 X219.116 Y190.25 E37.28168
G1 X218.342 Y190.714 E37.31169
G1 X217.529 Y191.108 E37.34174
G1 X216.685 Y191.428 E37.37176
G1 X215.815 Y191.673 E37.40182
G1 X214.928 Y191.839 E37.43184
G1 X213.777 Y191.937 E37.47026
G1 X213.17 Y191.95 E37.49045
G1 X87.075 Y191.949 E41.68439
G1 X86.377 Y191.94 E41.7076
G1 X85.476 Y191.889 E41.73762
G1 X84.582 Y191.757 E41.76768
G1 X83.704 Y191.548 E41.7977
G1 X82.847 Y191.261 E41.82776
G1 X82.02 Y190.9 E41.85777
G1 X81.227 Y190.467 E41.88782
G1 X80.476 Y189.966 E41.91785
G1 X79.772 Y189.4 E41.94789
G1 X79.121 Y188.774 E41.97793
G1 X78.528 Y188.093 E42.00796
G1 X77.998 Y187.362 E42.03799
G1 X77.534 Y186.587 E42.06804
G1 X77.14 Y185.774 E42.09809
G1 X76.82 Y184.93 E42.12811
G1 X76.576 Y184.06 E42.15816
G1 X76.41 Y183.172 E42.18821
G1 X76.313 Y182.017 E42.22676
G1 X76.3 Y181.408 E42.24702
G1 X76.301 Y118.786 E44.32983
G1 X76.31 Y118.121 E44.35195
G1 X76.362 Y117.219 E44.382
G1 X76.494 Y116.326 E44.41203
G1 X76.704 Y115.448 E44.44205
G1 X76.991 Y114.591 E44.47211
G1 X77.353 Y113.764 E44.50214
G1 X77.786 Y112.972 E44.53216
G1 X78.288 Y112.221 E44.56221
G1 X78.855 Y111.517 E44.59227
G1 X79.481 Y110.867 E44.62229
G1 X80.162 Y110.274 E44.65232
G1 F2400 E43.15232
;MESH:hole_test.stl
G0 F6000 X92.116 Y120.944
G0 X94.557 Y124.058
;TYPE:WALL-INNER
G1 F2400 E44.65232
G1 F1200 X93.979 Y124.078 E44.67156
G1 X93.47 Y123.974 E44.68884
G1 X92.957 Y123.744 E44.70753
G1 X92.489 Y123.295 E44.72911
G1 X92.245 Y122.888 E44.74489
G1 X92.069 Y122.327 E44.76444
G1 X92.05 Y121.808 E44.78172
G1 X92.115 Y121.448 E44.79388
G1 X92.277 Y121.027 E44.80889
G1 X92.523 Y120.629 E44.82445
G1 X92.691 Y120.454 E44.83252
G1 X93.216 Y120.092 E44.85373
G1 X93.728 Y119.924 E44.87165
G1 X94.116 Y119.884 E44.88462
G1 X94.681 Y119.948 E44.90354
G1 X95.152 Y120.138 E44.92043
G1 X95.493 Y120.371 E44.93417
G1 X95.806 Y120.68 E44.94879
G1 X95.933 Y120.863 E44.9562
G1 X96.147 Y121.346 E44.97377
G1 X96.24 Y121.908 E44.99272
G1 X96.194 Y122.431 E45.01018
G1 X96.011 Y122.952 E45.02855
G1 X95.78 Y123.299 E45.04241
G1 X95.525 Y123.571 E45.05481
G1 X95.086 Y123.856 E45.07222
G1 X94.557 Y124.058 E45.09106
G1 F2400 E43.59106
G0 F6000 X94.081 Y124.18
G0 X95.639 Y123.712
G0 X102.163 Y122.964
G0 X105.159 Y123.896
G1 F2400 E45.09106
G1 F1200 X104.441 Y124.096 E45.11585
G1 X103.817 Y124.043 E45.13668
G1 X103.457 Y123.933 E45.1492
G1 X102.97 Y123.695 E45.16722
G1 X102.56 Y123.261 E45.18708
G1 X102.328 Y122.888 E45.20169
G1 X102.165 Y122.367 E45.21985
G1 X102.123 Y121.914 E45.23498
G1 X102.189 Y121.476 E45.24971
G1 X102.343 Y121.019 E45.26575
G1 X102.713 Y120.498 E45.28701
G1 X103.218 Y120.131 E45.30777
G1 X103.424 Y120.034 E45.31534
G1 X103.973 Y119.897 E45.33416
G1 X104.384 Y119.892 E45.34783
G1 X104.779 Y119.954 E45.36113
G1 X105.28 Y120.155 E45.37909
G1 X105.473 Y120.279 E45.38672
G1 X105.836 Y120.628 E45.40346
G1 X106.068 Y120.97 E45.41721
G1 X106.258 Y121.433 E45.43385
G1 X106.333 Y121.918 E45.45018
G1 X106.287 Y122.387 E45.46585
G1 X106.126 Y122.948 E45.48526
G1 X105.685 Y123.498 E45.50871
G1 X105.159 Y123.896 E45.53065
G1 F2400 E44.03065
G0 F6000 X105.82 Y123.622
G0 X110.158 Y127.703
G0 X119.571 Y139.383
G1 F2400 E45.53065
G1 F1200 X119.147 Y139.441 E45.54488
G1 X118.571 Y139.479 E45.56408
G1 X117.954 Y139.48 E45.5846
G1 X117.337 Y139.439 E45.60517
G1 X116.903 Y139.378 E45.61975
G1 X116.359 Y139.274 E45.63817
G1 X115.914 Y139.162 E45.65343
G1 X115.59 Y139.06 E45.66473
G1 X115.044 Y138.86 E45.68407
G1 X114.631 Y138.683 E45.69901
G1 X114.354 Y138.546 E45.70929
G1 X113.835 Y138.259 E45.72902
G1 X113.363 Y137.951 E45.74776
G1 X113.015 Y137.696 E45.76211
G1 X112.636 Y137.381 E45.7785
G1 X112.322 Y137.095 E45.79263
G1 X111.892 Y136.651 E45.81319
G1 X111.602 Y136.305 E45.8282
G1 X111.33 Y135.954 E45.84297
G1 X111.178 Y135.734 E45.85187
G1 X110.917 Y135.324 E45.86803
G1 X110.771 Y135.064 E45.87795
G1 X110.522 Y134.584 E45.89593
G1 X110.381 Y134.264 E45.90757
G1 X110.222 Y133.858 E45.92207
G1 X110.082 Y133.438 E45.93679
G1 X109.958 Y132.993 E45.95216
G1 X109.859 Y132.55 E45.96725
G1 X109.758 Y131.836 E45.99124
G1 X109.722 Y131.416 E46.00526
G1 X109.712 Y130.968 E46.02016
G1 X109.717 Y130.62 E46.03174
G1 X109.757 Y130.068 E46.05015
G1 X109.82 Y129.587 E46.06628
G1 X109.869 Y129.311 E46.07561
G1 X109.971 Y128.852 E46.09124
G1 X110.136 Y128.289 E46.11076
G1 X110.34 Y127.736 E46.13036
G1 X110.517 Y127.323 E46.14531
G1 X110.646 Y127.062 E46.15499
G1 X110.947 Y126.52 E46.17561
G1 X111.175 Y126.161 E46.18976
G1 X111.503 Y125.713 E46.20822
G1 X111.82 Y125.332 E46.22471
G1 X112.119 Y125.003 E46.23949
G1 X112.307 Y124.815 E46.24834
G1 X112.662 Y124.492 E46.2643
G1 X113.006 Y124.21 E46.27909
G1 X113.462 Y123.878 E46.29785
G1 X113.85 Y123.633 E46.31312
G1 X114.124 Y123.474 E46.32365
G1 X114.62 Y123.218 E46.34222
G1 X115.025 Y123.038 E46.35696
G1 X115.736 Y122.789 E46.38202
G1 X116.299 Y122.636 E46.40142
G1 X116.931 Y122.512 E46.42284
G1 X117.335 Y122.46 E46.43639
G1 X117.92 Y122.417 E46.4559
G1 X118.568 Y122.417 E46.47745
G1 X119.153 Y122.46 E46.49696
G1 X119.557 Y122.512 E46.51051
G1 X120.177 Y122.631 E46.53151
G1 X120.909 Y122.835 E46.55678
G1 X121.417 Y123.019 E46.57475
G1 X121.861 Y123.213 E46.59087
G1 X122.122 Y123.341 E46.60054
G1 X122.658 Y123.637 E46.6209
G1 X123.029 Y123.874 E46.63554
G1 X123.509 Y124.223 E46.65528
G1 X123.841 Y124.495 E46.66956
G1 X124.175 Y124.802 E46.68465
G1 X124.571 Y125.21 E46.70356
G1 X124.899 Y125.593 E46.72033
G1 X125.164 Y125.937 E46.73477
G1 X125.396 Y126.277 E46.74846
G1 X125.726 Y126.826 E46.76977
G1 X125.991 Y127.345 E46.78915
G1 X126.273 Y128.03 E46.81379
G1 X126.413 Y128.442 E46.82826
G1 X126.534 Y128.888 E46.84363
G1 X126.63 Y129.316 E46.85822
G1 X126.738 Y130.059 E46.88319
G1 X126.776 Y130.489 E46.89755
G1 X126.784 Y130.842 E46.90929
G1 X126.779 Y131.268 E46.92346
G1 X126.739 Y131.863 E46.9433
G1 X126.63 Y132.59 E46.96775
G1 X126.53 Y133.023 E46.98253
G1 X126.364 Y133.607 E47.00272
G1 X126.164 Y134.148 E47.0219
G1 X125.996 Y134.542 E47.03615
G1 X125.85 Y134.835 E47.04704
G1 X125.569 Y135.342 E47.06632
G1 X125.397 Y135.614 E47.07702
G1 X125.111 Y136.034 E47.09392
G1 X124.678 Y136.567 E47.11676
G1 X124.377 Y136.893 E47.13152
G1 X124.189 Y137.081 E47.14036
G1 X123.836 Y137.402 E47.15623
G1 X123.509 Y137.674 E47.17038
G1 X123.255 Y137.865 E47.18095
G1 X122.886 Y138.119 E47.19585
G1 X122.414 Y138.403 E47.21417
G1 X121.872 Y138.68 E47.23442
G1 X121.446 Y138.865 E47.24986
G1 X121.022 Y139.026 E47.26495
G1 X120.729 Y139.116 E47.27514
G1 X120.156 Y139.269 E47.29487
G1 X119.571 Y139.383 E47.31469
G1 F2400 E45.81469
G0 F6000 X119.138 Y139.542
G0 X117.948 Y139.661
G0 X114.251 Y141.873
G0 X112.635 Y144.909
G1 F2400 E47.31469
G1 F1200 X112.252 Y144.995 E47.32775
G1 X111.783 Y145.004 E47.34335
G1 X111.263 Y144.906 E47.36095
G1 X110.785 Y144.683 E47.37849
G1 X110.441 Y144.426 E47.39277
G1 X110.167 Y144.13 E47.40619
G1 X109.928 Y143.766 E47.42067
G1 X109.767 Y143.325 E47.43629
G1 X109.697 Y142.846 E47.45239
G1 X109.73 Y142.3 E47.47058
G1 X109.914 Y141.778 E47.48899
G1 X110.26 Y141.223 E47.51074
G1 X110.765 Y140.815 E47.53234
G1 X111.282 Y140.583 E47.55118
G1 X111.675 Y140.501 E47.56454
G1 X112.295 Y140.504 E47.58516
G1 X112.892 Y140.662 E47.6057
G1 X113.35 Y140.957 E47.62382
G1 X113.649 Y141.233 E47.63735
G1 X113.91 Y141.596 E47.65222
G1 X114.081 Y141.943 E47.66509
G1 X114.234 Y142.503 E47.6844
G1 X114.202 Y143.214 E47.70807
G1 X113.949 Y143.833 E47.73031
G1 X113.764 Y144.124 E47.74178
G1 X113.335 Y144.549 E47.76186
G1 X112.973 Y144.775 E47.77606
G1 X112.635 Y144.909 E47.78815
G1 F2400 E46.28815
G0 F6000 X112.151 Y145.101
G0 X113.058 Y144.935
G0 X114.759 Y146.998
G0 X119.05 Y154.349
G1 F2400 E47.78815
G1 F1200 X118.682 Y154.4 E47.80051
G1 X118.278 Y154.42 E47.81396
G1 X117.859 Y154.406 E47.8279
G1 X117.481 Y154.354 E47.8406
G1 X117.04 Y154.253 E47.85564
G1 X116.535 Y154.075 E47.87345
G1 X116.017 Y153.826 E47.89257
G1 X115.587 Y153.535 E47.90984
G1 X115.343 Y153.335 E47.92033
G1 X115.029 Y153.038 E47.93471
G1 X114.647 Y152.567 E47.95488
G1 X114.501 Y152.346 E47.96369
G1 X114.313 Y152.012 E47.97643
G1 X114.132 Y151.615 E47.99094
G1 X113.99 Y151.192 E48.00579
G1 X113.893 Y150.804 E48.01909
G1 X113.843 Y150.389 E48.03299
G1 X113.824 Y150.041 E48.04458
G1 X113.851 Y149.53 E48.0616
G1 X113.893 Y149.227 E48.07178
G1 X113.999 Y148.776 E48.08719
G1 X114.131 Y148.385 E48.10091
G1 X114.267 Y148.065 E48.11248
G1 X114.513 Y147.628 E48.12915
G1 X114.688 Y147.376 E48.13936
G1 X114.938 Y147.068 E48.15255
G1 X115.197 Y146.789 E48.16521
G1 X115.619 Y146.439 E48.18345
G1 X115.905 Y146.246 E48.19493
G1 X116.303 Y146.021 E48.21013
G1 X116.751 Y145.836 E48.22625
G1 X117.148 Y145.71 E48.24011
G1 X117.598 Y145.622 E48.25536
G1 X117.932 Y145.585 E48.26653
G1 X118.274 Y145.576 E48.27791
G1 X118.74 Y145.602 E48.29344
G1 X119.039 Y145.65 E48.30351
G1 X119.504 Y145.757 E48.31938
G1 X119.938 Y145.91 E48.33468
G1 X120.453 Y146.155 E48.35365
G1 X120.836 Y146.413 E48.36901
G1 X121.167 Y146.674 E48.38303
G1 X121.393 Y146.889 E48.39341
G1 X121.7 Y147.232 E48.40872
G1 X122.013 Y147.667 E48.42654
G1 X122.241 Y148.091 E48.44255
G1 X122.381 Y148.424 E48.45457
G1 X122.512 Y148.817 E48.46835
