;FLAVOR:Marlin
;TIME:7288
;Filament used: 5.03023m
;Layer height: 0.2
;MINX:75.5
;MINY:107.25
;MINZ:0.2
;MAXX:224.5
;MAXY:192.75
;MAXZ:3.2
;TARGET_MACHINE.NAME:Creality CR-10S
;Generated with Cura_SteamEngine 5.8.0
M140 S60
M105
M190 S60
M104 S210
M105
M109 S210
M82 ;absolute extrusion mode
M220 S100 ;Reset Feedrate
M221 S100 ;Reset Flowrate

M280 P0 S160 ;reset bltouch
G28 ;Home
G29 A ; enable UBL
G92 E0 ;Reset Extruder
G1 Z2.0 F3000 ;Move Z Axis up
G1 X10.1 Y20 Z0.28 F5000.0 ;Move to start position
G1 X10.1 Y200.0 Z0.28 F1500.0 E15 ;Draw the first line
G1 X10.4 Y200.0 Z0.28 F5000.0 ;Move to side a little
G1 X10.4 Y20 Z0.28 F1500.0 E30 ;Draw the second line
G92 E0 ;Reset Extruder
G1 Z2.0 F3000 ;Move Z Axis up
G92 E0
G92 E0
G1 F2400 E-1.5
;LAYER_COUNT:16
;LAYER:0
M107
G0 F6000 X79.692 Y109.626 Z0.2
;TYPE:SKIRT
G1 F2400 E0
G1 F1200 X80.424 Y109.096 E0.03006
G1 X81.321 Y108.561 E0.0648
G1 X82.199 Y108.14 E0.09718
G1 X83.112 Y107.798 E0.12961
G1 X84.049 Y107.539 E0.16194
G1 X85.016 Y107.361 E0.19465
G1 X86.155 Y107.265 E0.23266
G1 X86.812 Y107.25 E0.25452
G1 X212.804 Y107.25 E4.44503
G1 X213.684 Y107.263 E4.4743
G1 X214.656 Y107.322 E4.50669
G1 X215.619 Y107.468 E4.53909
G1 X216.566 Y107.699 E4.57151
G1 X217.454 Y107.999 E4.60268
G1 X218.346 Y108.389 E4.63506
G1 X219.229 Y108.876 E4.6686
G1 X219.98 Y109.378 E4.69865
G1 X220.795 Y110.036 E4.73349
G1 X221.493 Y110.714 E4.76585
G1 X222.129 Y111.451 E4.79823
G1 X222.699 Y112.241 E4.83063
G1 X223.161 Y113.017 E4.86067
G1 X223.615 Y113.959 E4.89545
G1 X223.944 Y114.837 E4.92663
G1 X224.213 Y115.809 E4.96018
G1 X224.39 Y116.775 E4.99284
G1 X224.485 Y117.905 E5.03056
G1 X224.5 Y118.58 E5.05301
G1 X224.499 Y181.15 E7.1341
G1 X224.488 Y181.913 E7.15948
G1 X224.431 Y182.886 E7.1919
G1 X224.286 Y183.849 E7.22429
G1 X224.057 Y184.795 E7.25666
G1 X223.746 Y185.719 E7.28909
G1 X223.354 Y186.61 E7.32146
G1 X222.886 Y187.462 E7.3538
G1 X222.364 Y188.243 E7.38504
G1 X221.731 Y189.028 E7.41858
G1 X221.106 Y189.679 E7.4486
G1 X220.317 Y190.367 E7.48341
G1 X219.557 Y190.917 E7.51462
G1 X218.69 Y191.434 E7.54819
G1 X217.812 Y191.856 E7.58059
G1 X216.901 Y192.198 E7.61296
G1 X215.962 Y192.459 E7.64537
G1 X214.996 Y192.637 E7.67804
G1 X213.845 Y192.735 E7.71646
G1 X213.17 Y192.75 E7.73892
G1 X87.064 Y192.749 E11.93322
G1 X86.331 Y192.738 E11.9576
G1 X85.359 Y192.681 E11.98999
G1 X84.396 Y192.535 E12.02238
G1 X83.45 Y192.306 E12.05476
G1 X82.526 Y191.994 E12.08719
G1 X81.636 Y191.602 E12.11954
G1 X80.813 Y191.151 E12.15075
G1 X79.974 Y190.59 E12.18432
G1 X79.27 Y190.024 E12.21437
G1 X78.517 Y189.299 E12.24913
G1 X77.88 Y188.563 E12.28151
G1 X77.35 Y187.832 E12.31154
G1 X76.814 Y186.935 E12.34629
G1 X76.392 Y186.057 E12.37869
G1 X76.05 Y185.145 E12.41109
G1 X75.79 Y184.207 E12.44346
G1 X75.612 Y183.238 E12.47623
G1 X75.514 Y182.059 E12.51558
G1 X75.5 Y181.408 E12.53724
G1 X75.501 Y118.775 E14.62042
G1 X75.512 Y118.075 E14.6437
G1 X75.57 Y117.102 E14.67612
G1 X75.716 Y116.139 E14.70852
G1 X75.946 Y115.193 E14.7409
G1 X76.259 Y114.27 E14.77332
G1 X76.651 Y113.38 E14.80566
G1 X77.121 Y112.527 E14.83805
G1 X77.664 Y111.719 E14.87043
G1 X78.231 Y111.015 E14.9005
G1 X78.956 Y110.263 E14.93524
G1 X79.692 Y109.626 E14.96762
G0 F6000 X79.927 Y109.95
G1 F1200 X80.659 Y109.42 E14.99767
G1 X81.495 Y108.921 E15.03006
G1 X82.34 Y108.514 E15.06125
G1 X83.219 Y108.183 E15.09249
G1 X84.122 Y107.932 E15.12366
G1 X85.05 Y107.76 E15.15505
G1 X86.189 Y107.664 E15.19307
G1 X86.821 Y107.65 E15.2141
G1 X212.798 Y107.65 E19.40411
G1 X213.66 Y107.662 E19.43278
G1 X214.597 Y107.718 E19.464
G1 X215.525 Y107.857 E19.49521
G1 X216.438 Y108.078 E19.52646
G1 X217.294 Y108.366 E19.5565
G1 X218.186 Y108.756 E19.58888
G1 X219.007 Y109.209 E19.62006
G1 X219.758 Y109.711 E19.65011
G1 X220.517 Y110.323 E19.68254
G1 X221.191 Y110.976 E19.71375
G1 X221.805 Y111.685 E19.74494
G1 X222.355 Y112.446 E19.77617
G1 X222.817 Y113.222 E19.80621
G1 X223.24 Y114.099 E19.8386
G1 X223.569 Y114.977 E19.86978
G1 X223.82 Y115.882 E19.90102
G1 X223.991 Y116.809 E19.93237
G1 X224.086 Y117.939 E19.97009
G1 X224.1 Y118.58 E19.99141
G1 X224.099 Y181.145 E22.07233
G1 X224.089 Y181.89 E22.09711
G1 X224.035 Y182.827 E22.12833
G1 X223.897 Y183.756 E22.15957
G1 X223.678 Y184.668 E22.19076
G1 X223.38 Y185.558 E22.22198
G1 X223.003 Y186.418 E22.25321
G1 X222.553 Y187.24 E22.28438
G1 X222.031 Y188.021 E22.31562
G1 X221.442 Y188.751 E22.34682
G1 X220.817 Y189.402 E22.37684
G1 X220.082 Y190.043 E22.40927
G1 X219.322 Y190.593 E22.44048
G1 X218.516 Y191.074 E22.4717
G1 X217.671 Y191.482 E22.5029
G1 X216.793 Y191.813 E22.53411
G1 X215.889 Y192.066 E22.56534
G1 X214.962 Y192.238 E22.59669
G1 X213.811 Y192.336 E22.63511
G1 X213.17 Y192.35 E22.65644
G1 X87.07 Y192.349 E26.85054
G1 X86.354 Y192.339 E26.87436
G1 X85.418 Y192.285 E26.90554
G1 X84.489 Y192.146 E26.93679
G1 X83.577 Y191.927 E26.96798
G1 X82.687 Y191.628 E26.99921
G1 X81.828 Y191.251 E27.03041
G1 X81.005 Y190.8 E27.06162
G1 X80.225 Y190.278 E27.09284
G1 X79.521 Y189.712 E27.12288
G1 X78.819 Y189.037 E27.15527
G1 X78.204 Y188.328 E27.18649
G1 X77.674 Y187.597 E27.21652
G1 X77.174 Y186.761 E27.24892
G1 X76.766 Y185.916 E27.28013
G1 X76.435 Y185.038 E27.31134
G1 X76.183 Y184.134 E27.34255
G1 X76.011 Y183.205 E27.37398
G1 X75.913 Y182.026 E27.41333
G1 X75.9 Y181.408 E27.43389
G1 X75.901 Y118.781 E29.51687
G1 X75.911 Y118.098 E29.53959
G1 X75.966 Y117.161 E29.57081
G1 X76.105 Y116.233 E29.60202
G1 X76.325 Y115.321 E29.63322
G1 X76.625 Y114.431 E29.66446
G1 X77.002 Y113.572 E29.69566
G1 X77.453 Y112.75 E29.72684
G1 X77.976 Y111.97 E29.75808
G1 X78.543 Y111.266 E29.78814
G1 X79.218 Y110.565 E29.82051
G1 X79.927 Y109.95 E29.85173
G0 F6000 X80.162 Y110.274
G1 F1200 X80.894 Y109.744 E29.88178
G1 X81.669 Y109.281 E29.91181
G1 X82.482 Y108.888 E29.94184
G1 X83.327 Y108.568 E29.9719
G1 X84.196 Y108.325 E30.00191
G1 X85.084 Y108.159 E30.03196
G1 X86.223 Y108.063 E30.06997
G1 X86.83 Y108.05 E30.09017
G1 X212.793 Y108.05 E34.27971
G1 X213.637 Y108.061 E34.30779
G1 X214.539 Y108.114 E34.33784
G1 X215.432 Y108.246 E34.36786
G1 X216.31 Y108.457 E34.3979
G1 X217.166 Y108.745 E34.42794
G1 X217.993 Y109.107 E34.45796
G1 X218.785 Y109.542 E34.48802
G1 X219.536 Y110.044 E34.51806
G1 X220.239 Y110.611 E34.5481
G1 X220.889 Y111.238 E34.57814
G1 X221.481 Y111.92 E34.60818
G1 X222.011 Y112.651 E34.63821
G1 X222.473 Y113.427 E34.66824
G1 X222.866 Y114.24 E34.69828
G1 X223.184 Y115.085 E34.72831
G1 X223.427 Y115.955 E34.75835
G1 X223.592 Y116.843 E34.78839
G1 X223.687 Y117.973 E34.82611
G1 X223.7 Y118.58 E34.8463
G1 X223.699 Y181.14 E36.92706
G1 X223.69 Y181.867 E36.95124
G1 X223.639 Y182.769 E36.98129
G1 X223.508 Y183.663 E37.01134
G1 X223.299 Y184.541 E37.04136
G1 X223.013 Y185.398 E37.07141
G1 X222.652 Y186.226 E37.10145
G1 X222.22 Y187.018 E37.13145
G1 X221.719 Y187.77 E37.16151
G1 X221.153 Y188.474 E37.19155
G1 X220.528 Y189.125 E37.22157
G1 X219.847 Y189.719 E37.25162
G1 X219.116 Y190.25 E37.28168
G1 X218.342 Y190.714 E37.31169
G1 X217.529 Y191.108 E37.34174
G1 X216.685 Y191.428 E37.37176
G1 X215.815 Y191.673 E37.40182
G1 X214.928 Y191.839 E37.43184
G1 X213.777 Y191.937 E37.47026
G1 X213.17 Y191.95 E37.49045
G1 X87.075 Y191.949 E41.68439
G1 X86.377 Y191.94 E41.7076
G1 X85.476 Y191.889 E41.73762
G1 X84.582 Y191.757 E41.76768
G1 X83.704 Y191.548 E41.7977
G1 X82.847 Y191.261 E41.82776
G1 X82.02 Y190.9 E41.85777
G1 X81.227 Y190.467 E41.88782
G1 X80.476 Y189.966 E41.91785
G1 X79.772 Y189.4 E41.94789
G1 X79.121 Y188.774 E41.97793
G1 X78.528 Y188.093 E42.00796
G1 X77.998 Y187.362 E42.03799
G1 X77.534 Y186.587 E42.06804
G1 X77.14 Y185.774 E42.09809
G1 X76.82 Y184.93 E42.12811
G1 X76.576 Y184.06 E42.15816
G1 X76.41 Y183.172 E42.18821
G1 X76.313 Y182.017 E42.22676
G1 X76.3 Y181.408 E42.24702
G1 X76.301 Y118.786 E44.32983
G1 X76.31 Y118.121 E44.35195
G1 X76.362 Y117.219 E44.382
G1 X76.494 Y116.326 E44.41203
G1 X76.704 Y115.448 E44.44205
G1 X76.991 Y114.591 E44.47211
G1 X77.353 Y113.764 E44.50214
G1 X77.786 Y112.972 E44.53216
G1 X78.288 Y112.221 E44.56221
G1 X78.855 Y111.517 E44.59227
G1 X79.481 Y110.867 E44.62229
G1 X80.162 Y110.274 E44.65232
G1 F2400 E43.15232
;MESH:hole_test.stl
G0 F6000 X92.116 Y120.944
G0 X94.561 Y124.056
;TYPE:WALL-INNER
G1 F2400 E44.65232
G1 F1200 X93.992 Y124.082 E44.67126
G1 X93.469 Y123.97 E44.68905
G1 X92.958 Y123.744 E44.70764
G1 X92.489 Y123.295 E44.72923
G1 X92.245 Y122.888 E44.74502
G1 X92.069 Y122.327 E44.76457
G1 X92.05 Y121.808 E44.78185
G1 X92.115 Y121.448 E44.79401
G1 X92.277 Y121.027 E44.80902
G1 X92.523 Y120.629 E44.82458
G1 X92.691 Y120.454 E44.83265
G1 X93.216 Y120.092 E44.85386
G1 X93.728 Y119.924 E44.87178
G1 X94.116 Y119.884 E44.88475
G1 X94.681 Y119.948 E44.90367
G1 X95.152 Y120.138 E44.92056
G1 X95.493 Y120.371 E44.93429
G1 X95.806 Y120.68 E44.94892
G1 X95.933 Y120.863 E44.95633
G1 X96.147 Y121.346 E44.9739
G1 X96.24 Y121.908 E44.99285
G1 X96.19 Y122.459 E45.01125
G1 X96.008 Y122.948 E45.0286
G1 X95.782 Y123.297 E45.04243
G1 X95.512 Y123.578 E45.05539
G1 X95.073 Y123.867 E45.07288
G1 X94.561 Y124.056 E45.09103
G1 F2400 E43.59103
G0 F6000 X93.983 Y124.184
G0 X95.64 Y123.713
G0 X102.163 Y122.96
G0 X104.552 Y124.077
G1 F2400 E45.09103
G1 F1200 X103.932 Y124.069 E45.11165
G1 X103.501 Y123.954 E45.12649
G1 X102.967 Y123.692 E45.14627
G1 X102.563 Y123.259 E45.16597
G1 X102.343 Y122.91 E45.17969
G1 X102.165 Y122.368 E45.19866
G1 X102.123 Y121.914 E45.21383
G1 X102.189 Y121.476 E45.22856
G1 X102.343 Y121.019 E45.2446
G1 X102.713 Y120.498 E45.26585
G1 X103.218 Y120.131 E45.28662
G1 X103.424 Y120.034 E45.29419
G1 X103.973 Y119.897 E45.31301
G1 X104.457 Y119.891 E45.32911
G1 X105.004 Y120.027 E45.34786
G1 X105.411 Y120.245 E45.36321
G1 X105.834 Y120.619 E45.38199
G1 X106.068 Y120.971 E45.39605
G1 X106.258 Y121.433 E45.41267
G1 X106.331 Y121.9 E45.42839
G1 X106.312 Y122.241 E45.43975
G1 X106.184 Y122.756 E45.4574
G1 X106.015 Y123.084 E45.46967
G1 X105.658 Y123.558 E45.48941
G1 X105.07 Y123.907 E45.51215
G1 X104.552 Y124.077 E45.53028
G1 F2400 E44.03028
G0 F6000 X105.69 Y123.749
G0 X110.263 Y126.856
G0 X120.217 Y139.519
G1 F2400 E45.53028
G1 F1200 X119.476 Y139.655 E45.55534
G1 X118.849 Y139.72 E45.5763
G1 X118.205 Y139.74 E45.59773
G1 X117.634 Y139.718 E45.61674
G1 X117.308 Y139.691 E45.62762
G1 X116.729 Y139.61 E45.64706
G1 X116.293 Y139.52 E45.66187
G1 X115.814 Y139.395 E45.67834
G1 X115.238 Y139.207 E45.69849
G1 X114.667 Y138.979 E45.71894
G1 X114.245 Y138.778 E45.73449
G1 X113.572 Y138.394 E45.76026
G1 X113.061 Y138.048 E45.78078
G1 X112.704 Y137.771 E45.79581
G1 X112.254 Y137.384 E45.81555
G1 X111.825 Y136.951 E45.83583
G1 X111.625 Y136.73 E45.84574
G1 X111.215 Y136.219 E45.86753
G1 X110.811 Y135.639 E45.89104
G1 X110.49 Y135.082 E45.91242
G1 X110.271 Y134.647 E45.92862
G1 X110.099 Y134.244 E45.94319
G1 X109.885 Y133.658 E45.96394
G1 X109.747 Y133.196 E45.97998
G1 X109.611 Y132.603 E46.00021
G1 X109.54 Y132.156 E46.01527
G1 X109.501 Y131.839 E46.02589
G1 X109.461 Y131.279 E46.04456
G1 X109.463 Y130.576 E46.06795
G1 X109.521 Y129.845 E46.09234
G1 X109.675 Y128.996 E46.12103
G1 X109.846 Y128.354 E46.14313
G1 X109.939 Y128.078 E46.15282
G1 X110.168 Y127.481 E46.17409
G1 X110.421 Y126.943 E46.19386
G1 X110.637 Y126.551 E46.20875
G1 X110.81 Y126.264 E46.21989
G1 X111.139 Y125.779 E46.23938
G1 X111.432 Y125.397 E46.2554
G1 X111.825 Y124.941 E46.27542
G1 X112.261 Y124.51 E46.29581
G1 X112.469 Y124.322 E46.30513
G1 X112.959 Y123.927 E46.32607
G1 X113.343 Y123.654 E46.34174
G1 X113.604 Y123.484 E46.3521
G1 X114.133 Y123.18 E46.37239
G1 X114.505 Y122.992 E46.38625
G1 X114.977 Y122.788 E46.40336
G1 X115.501 Y122.596 E46.42192
G1 X115.853 Y122.489 E46.43415
G1 X116.431 Y122.349 E46.45393
G1 X117.019 Y122.245 E46.4738
G1 X117.353 Y122.201 E46.485
G1 X117.913 Y122.161 E46.50367
G1 X118.575 Y122.161 E46.52569
G1 X119.18 Y122.205 E46.54587
G1 X119.748 Y122.285 E46.56495
G1 X120.356 Y122.412 E46.5856
G1 X120.969 Y122.587 E46.60681
G1 X121.274 Y122.691 E46.61752
G1 X121.834 Y122.919 E46.63764
G1 X122.222 Y123.107 E46.65198
G1 X122.661 Y123.343 E46.66855
G1 X122.918 Y123.501 E46.67859
G1 X123.435 Y123.848 E46.6993
G1 X123.767 Y124.104 E46.71324
G1 X124.251 Y124.521 E46.73449
G1 X124.671 Y124.945 E46.75434
G1 X124.89 Y125.189 E46.76524
G1 X125.258 Y125.641 E46.78463
G1 X125.712 Y126.3 E46.81125
G1 X126.017 Y126.831 E46.83161
G1 X126.223 Y127.244 E46.84696
G1 X126.413 Y127.683 E46.86287
G1 X126.601 Y128.203 E46.88126
G1 X126.749 Y128.702 E46.89858
G1 X126.88 Y129.277 E46.91819
G1 X126.956 Y129.717 E46.93304
G1 X127.02 Y130.341 E46.9539
G1 X127.04 Y130.82 E46.96985
G1 X127.04 Y131.112 E46.97956
G1 X127.019 Y131.572 E46.99488
G1 X126.956 Y132.181 E47.01524
G1 X126.879 Y132.632 E47.03046
G1 X126.816 Y132.921 E47.0403
G1 X126.66 Y133.504 E47.06037
G1 X126.557 Y133.821 E47.07146
G1 X126.332 Y134.411 E47.09246
G1 X126.075 Y134.957 E47.11253
G1 X125.86 Y135.347 E47.12734
G1 X125.689 Y135.633 E47.13842
G1 X125.368 Y136.107 E47.15746
G1 X125.062 Y136.505 E47.17416
G1 X124.673 Y136.953 E47.1939
G1 X124.118 Y137.504 E47.21991
G1 X123.54 Y137.967 E47.24454
G1 X123.18 Y138.227 E47.25931
G1 X122.896 Y138.413 E47.2706
G1 X122.367 Y138.716 E47.29088
G1 X121.979 Y138.912 E47.30533
G1 X121.538 Y139.103 E47.32132
G1 X121.108 Y139.263 E47.33658
G1 X120.809 Y139.36 E47.34703
G1 X120.217 Y139.519 E47.36742
G1 F2400 E45.86742
G0 F6000 X118.877 Y139.9
G0 X114.249 Y141.867
G0 X112.581 Y144.927
G1 F2400 E47.36742
G1 F1200 X112.242 Y144.996 E47.37893
G1 X111.788 Y145.004 E47.39403
G1 X111.276 Y144.91 E47.41134
G1 X110.827 Y144.707 E47.42773
G1 X110.45 Y144.434 E47.44321
G1 X110.168 Y144.13 E47.45701
G1 X109.928 Y143.769 E47.47142
G1 X109.767 Y143.326 E47.4871
G1 X109.693 Y142.826 E47.50391
G1 X109.726 Y142.32 E47.52078
G1 X109.919 Y141.759 E47.54051
G1 X110.264 Y141.218 E47.56185
G1 X110.775 Y140.815 E47.5835
G1 X111.282 Y140.582 E47.60206
G1 X111.698 Y140.495 E47.61619
G1 X112.309 Y140.506 E47.63652
G1 X112.886 Y140.658 E47.65636
G1 X113.377 Y140.978 E47.67585
G1 X113.672 Y141.265 E47.68954
G1 X113.904 Y141.579 E47.70253
G1 X114.079 Y141.938 E47.71581
G1 X114.233 Y142.5 E47.73519
G1 X114.203 Y143.217 E47.75906
G1 X113.936 Y143.857 E47.78213
G1 X113.762 Y144.122 E47.79267
G1 X113.336 Y144.548 E47.81271
G1 X112.955 Y144.787 E47.82767
G1 X112.581 Y144.927 E47.84095
G1 F2400 E46.34095
G0 F6000 X112.97 Y144.889
G0 X112.005 Y144.854
G0 X110.331 Y144.57
G0 X106.523 Y145.431
G0 X102.014 Y148.666
G1 F2400 E47.84095
G1 F1200 X101.458 Y148.838 E47.86031
G1 X101.138 Y148.917 E47.87127
G1 X100.536 Y149.036 E47.89168
G1 X100.124 Y149.088 E47.90549
G1 X99.527 Y149.131 E47.9254
G1 X98.908 Y149.132 E47.94599
G1 X98.565 Y149.117 E47.95741
G1 X97.994 Y149.053 E47.97652
G1 X97.528 Y148.975 E47.99223
G1 X97.085 Y148.877 E48.00732
G1 X96.545 Y148.721 E48.02602
G1 X96.077 Y148.556 E48.04252
G1 X95.668 Y148.388 E48.05723
G1 X95.144 Y148.132 E48.07663
G1 X94.727 Y147.896 E48.09256
G1 X94.349 Y147.656 E48.10745
G1 X93.971 Y147.383 E48.12296
G1 X93.622 Y147.105 E48.1378
G1 X93.384 Y146.897 E48.14832
G1 X92.955 Y146.483 E48.16815
G1 X92.547 Y146.03 E48.18842
G1 X92.272 Y145.678 E48.20328
G1 X92.001 Y145.298 E48.2188
G1 X91.771 Y144.935 E48.2331
G1 X91.535 Y144.521 E48.24895
G1 X91.339 Y144.128 E48.26355
G1 X91.158 Y143.701 E48.27898
G1 X91.014 Y143.321 E48.29249
G1 X90.824 Y142.688 E48.31448
G1 X90.687 Y142.11 E48.33423
G1 X90.64 Y141.819 E48.34404
G1 X90.568 Y141.243 E48.36334
G1 X90.54 Y140.782 E48.3787
G1 X90.532 Y140.463 E48.38932
G1 X90.554 Y139.84 E48.41005
G1 X90.598 Y139.406 E48.42456
G1 X90.646 Y139.091 E48.43516
G1 X90.751 Y138.542 E48.45375
G1 X90.908 Y137.949 E48.47415
G1 X91.111 Y137.362 E48.49481
G1 X91.363 Y136.77 E48.51621
G1 X91.551 Y136.397 E48.5301
G1 X91.785 Y135.99 E48.54572
G1 X92.02 Y135.621 E48.56027
G1 X92.276 Y135.265 E48.57485
G1 X92.564 Y134.9 E48.59032
G1 X92.778 Y134.656 E48.60111
G1 X93.154 Y134.264 E48.61918
G1 X93.635 Y133.829 E48.64075
G1 X93.985 Y133.552 E48.65559
G1 X94.341 Y133.296 E48.67018
G1 X94.749 Y133.038 E48.68623
G1 X95.241 Y132.766 E48.70493
G1 X95.953 Y132.437 E48.73102
G1 X96.386 Y132.277 E48.74637
