;FLAVOR:Marlin
;TIME:48580
;Filament used: 30.3658m
;Layer height: 0.16
;MINX:36.524
;MINY:74.624
;MINZ:0.2
;MAXX:263.477
;MAXY:225.376
;MAXZ:12.68
;TARGET_MACHINE.NAME:Creality CR-10S
;Generated with Cura_SteamEngine 5.8.0
M140 S60
M105
M190 S60
M104 S210
M105
M109 S210
M82 ;absolute extrusion mode
M220 S100 ;Reset Feedrate
M221 S100 ;Reset Flowrate

M280 P0 S160 ;reset bltouch
G28 ;Home
G29 A ; enable UBL
G92 E0 ;Reset Extruder
G1 Z2.0 F3000 ;Move Z Axis up
G1 X10.1 Y20 Z0.28 F5000.0 ;Move to start position
G1 X10.1 Y200.0 Z0.28 F1500.0 E15 ;Draw the first line
G1 X10.4 Y200.0 Z0.28 F5000.0 ;Move to side a little
G1 X10.4 Y20 Z0.28 F1500.0 E30 ;Draw the second line
G92 E0 ;Reset Extruder
G1 Z2.0 F3000 ;Move Z Axis up
G92 E0
G92 E0
G1 F2400 E-1.5
;LAYER_COUNT:69
;LAYER:0
M107
G0 F6000 X40.06 Y76.309 Z0.2
;TYPE:SKIRT
G1 F2400 E0
G1 F1200 X41.549 Y75.511 E0.05619
G1 X43.124 Y74.906 E0.1123
G1 X44.297 Y74.624 E0.15243
G1 X256.051 Y74.624 E7.1954
G1 X258.23 Y75.408 E7.27242
G1 X259.804 Y76.173 E7.33063
G1 X261.791 Y78.16 E7.42409
G1 X262.589 Y79.649 E7.48028
G1 X263.194 Y81.224 E7.53639
G1 X263.476 Y82.397 E7.57652
G1 X263.477 Y217.948 E12.08496
G1 X262.692 Y220.13 E12.16209
G1 X261.927 Y221.704 E12.2203
G1 X259.948 Y223.683 E12.31338
G1 X258.52 Y224.46 E12.36746
G1 X256.848 Y225.151 E12.42763
G1 X255.825 Y225.321 E12.46212
G1 X43.949 Y225.376 E19.50914
G1 X41.77 Y224.592 E19.58617
G1 X40.196 Y223.827 E19.64437
G1 X38.209 Y221.84 E19.73784
G1 X37.411 Y220.351 E19.79402
G1 X36.806 Y218.776 E19.85014
G1 X36.524 Y217.603 E19.89027
G1 X36.527 Y82.741 E24.3758
G1 X36.995 Y80.4 E24.4552
G1 X38.149 Y78.22 E24.53724
G1 X40.06 Y76.309 E24.62713
G0 F6000 X40.301 Y76.634
G1 F1200 X41.738 Y75.864 E24.68135
G1 X43.218 Y75.295 E24.73409
G1 X44.345 Y75.024 E24.77264
G1 X255.98 Y75.024 E31.81165
G1 X258.055 Y75.768 E31.88496
G1 X259.569 Y76.504 E31.94096
G1 X261.466 Y78.401 E32.03018
G1 X262.236 Y79.838 E32.08441
G1 X262.805 Y81.318 E32.13715
G1 X263.076 Y82.445 E32.1757
G1 X263.077 Y217.877 E36.68019
G1 X262.332 Y219.955 E36.75361
G1 X261.596 Y221.469 E36.8096
G1 X259.704 Y223.361 E36.89859
G1 X258.367 Y224.09 E36.94924
G1 X256.737 Y224.764 E37.00791
G1 X255.76 Y224.926 E37.04085
G1 X44.02 Y224.976 E44.08335
G1 X41.945 Y224.232 E44.15666
G1 X40.431 Y223.496 E44.21266
G1 X38.534 Y221.599 E44.30188
G1 X37.764 Y220.162 E44.35611
G1 X37.195 Y218.682 E44.40885
G1 X36.924 Y217.555 E44.4474
G1 X36.927 Y82.779 E48.93007
G1 X37.375 Y80.538 E49.00608
G1 X38.475 Y78.46 E49.08428
G1 X40.301 Y76.634 E49.17017
G0 F6000 X40.542 Y76.959
G1 F1200 X41.927 Y76.217 E49.22243
G1 X43.312 Y75.684 E49.27179
G1 X44.393 Y75.424 E49.30877
G1 X255.909 Y75.424 E56.34382
G1 X257.88 Y76.128 E56.41343
G1 X259.334 Y76.835 E56.4672
G1 X261.141 Y78.642 E56.5522
G1 X261.883 Y80.027 E56.60446
G1 X262.416 Y81.412 E56.65382
G1 X262.676 Y82.493 E56.6908
G1 X262.677 Y217.806 E61.19132
G1 X261.972 Y219.78 E61.26104
G1 X261.265 Y221.234 E61.31482
G1 X259.461 Y223.038 E61.39967
G1 X258.214 Y223.72 E61.44694
G1 X256.627 Y224.376 E61.50406
G1 X255.694 Y224.531 E61.53552
G1 X44.091 Y224.576 E68.57346
G1 X42.12 Y223.872 E68.64307
G1 X40.666 Y223.165 E68.69685
G1 X38.859 Y221.358 E68.78184
G1 X38.117 Y219.973 E68.8341
G1 X37.584 Y218.588 E68.88346
G1 X37.324 Y217.507 E68.92044
G1 X37.327 Y82.817 E73.40025
G1 X37.755 Y80.676 E73.47287
G1 X38.801 Y78.7 E73.54723
G1 X40.542 Y76.959 E73.62912
G0 F6000 X40.784 Y77.283
G1 F1200 X42.072 Y76.59 E73.67777
G1 X43.406 Y76.073 E73.72535
G1 X44.441 Y75.824 E73.76076
G1 X255.839 Y75.824 E80.79188
G1 X257.705 Y76.488 E80.85776
G1 X259.099 Y77.166 E80.90932
G1 X260.817 Y78.884 E80.99013
G1 X261.51 Y80.172 E81.03877
G1 X262.027 Y81.506 E81.08636
G1 X262.276 Y82.541 E81.12176
G1 X262.277 Y217.736 E85.61837
G1 X261.612 Y219.605 E85.68435
G1 X260.934 Y220.999 E85.73591
G1 X259.218 Y222.715 E85.81662
G1 X258.061 Y223.35 E85.86052
G1 X256.516 Y223.989 E85.91613
G1 X255.629 Y224.136 E85.94603
G1 X44.161 Y224.176 E92.97949
G1 X42.295 Y223.512 E93.04536
G1 X40.901 Y222.834 E93.09692
G1 X39.183 Y221.116 E93.17773
G1 X38.49 Y219.828 E93.22637
G1 X37.973 Y218.494 E93.27396
G1 X37.724 Y217.459 E93.30937
G1 X37.727 Y82.855 E97.78631
G1 X38.135 Y80.814 E97.85554
G1 X39.127 Y78.94 E97.92606
G1 X40.784 Y77.283 E98.004
G0 F6000 X41.026 Y77.607
G1 F1200 X42.217 Y76.963 E98.04904
G1 X43.5 Y76.462 E98.09485
G1 X44.489 Y76.224 E98.12868
G1 X255.77 Y76.224 E105.15592
G1 X257.53 Y76.848 E105.21802
G1 X258.864 Y77.497 E105.26736
G1 X260.493 Y79.126 E105.34399
G1 X261.137 Y80.317 E105.38902
G1 X261.638 Y81.6 E105.43483
G1 X261.876 Y82.589 E105.46866
G1 X261.877 Y217.667 E109.96138
G1 X261.252 Y219.43 E110.02359
G1 X260.603 Y220.764 E110.07293
G1 X258.974 Y222.393 E110.14956
G1 X257.908 Y222.98 E110.19003
G1 X256.406 Y223.601 E110.24409
G1 X255.563 Y223.741 E110.27251
G1 X44.23 Y223.776 E117.30148
G1 X42.47 Y223.152 E117.36358
G1 X41.136 Y222.503 E117.41292
G1 X39.507 Y220.874 E117.48955
G1 X38.863 Y219.683 E117.53458
G1 X38.362 Y218.4 E117.58039
G1 X38.124 Y217.411 E117.61422
G1 X38.127 Y82.893 E122.08831
G1 X38.515 Y80.952 E122.15415
G1 X39.453 Y79.18 E122.22083
G1 X41.026 Y77.607 E122.29482
G0 F6000 X41.269 Y77.93
G1 F1200 X42.362 Y77.336 E122.3362
G1 X43.645 Y76.835 E122.38201
G1 X44.535 Y76.624 E122.41243
G1 X255.702 Y76.624 E129.43587
G1 X257.355 Y77.208 E129.49418
G1 X258.629 Y77.828 E129.54131
G1 X260.17 Y79.369 E129.61379
G1 X260.764 Y80.462 E129.65516
G1 X261.265 Y81.745 E129.70098
G1 X261.476 Y82.635 E129.7314
G1 X261.477 Y217.599 E134.22032
G1 X260.892 Y219.255 E134.27873
G1 X260.272 Y220.529 E134.32586
G1 X258.731 Y222.07 E134.39834
G1 X257.755 Y222.61 E134.43544
G1 X256.295 Y223.214 E134.48799
G1 X255.498 Y223.346 E134.51486
G1 X44.298 Y223.376 E141.5394
G1 X42.645 Y222.792 E141.59771
G1 X41.371 Y222.172 E141.64484
G1 X39.83 Y220.631 E141.71732
G1 X39.236 Y219.538 E141.75869
G1 X38.735 Y218.255 E141.80451
G1 X38.524 Y217.365 E141.83493
G1 X38.527 Y82.931 E146.30622
G1 X38.895 Y81.09 E146.36866
G1 X39.779 Y79.42 E146.43151
G1 X41.269 Y77.93 E146.5016
G0 F6000 X41.511 Y78.254
G1 F1200 X42.507 Y77.709 E146.53936
G1 X43.79 Y77.208 E146.58517
G1 X44.583 Y77.024 E146.61224
G1 X255.634 Y77.024 E153.63183
G1 X257.18 Y77.568 E153.68634
G1 X258.394 Y78.159 E153.73125
G1 X259.846 Y79.611 E153.79955
G1 X260.391 Y80.607 E153.83731
G1 X260.892 Y81.89 E153.88312
G1 X261.076 Y82.683 E153.91019
G1 X261.077 Y217.531 E158.39526
G1 X260.532 Y219.08 E158.44987
G1 X259.941 Y220.294 E158.49478
G1 X258.488 Y221.747 E158.56313
G1 X257.602 Y222.24 E158.59685
G1 X256.184 Y222.827 E158.64789
G1 X255.433 Y222.951 E158.67321
G1 X44.366 Y222.976 E165.69333
G1 X42.82 Y222.432 E165.74784
G1 X41.606 Y221.841 E165.79275
G1 X40.154 Y220.389 E165.86104
G1 X39.609 Y219.393 E165.89881
G1 X39.108 Y218.11 E165.94462
G1 X38.924 Y217.317 E165.97169
G1 X38.927 Y82.969 E170.44013
G1 X39.275 Y81.228 E170.49918
G1 X40.105 Y79.66 E170.55818
G1 X41.511 Y78.254 E170.62432
G0 F6000 X41.755 Y78.576
G1 F1200 X42.654 Y78.081 E170.65845
G1 X43.88 Y77.598 E170.70228
G1 X44.63 Y77.424 E170.72789
G1 X255.567 Y77.424 E177.74368
G1 X257.005 Y77.928 E177.79436
G1 X258.159 Y78.49 E177.83705
G1 X259.524 Y79.855 E177.90126
G1 X260.019 Y80.754 E177.93539
G1 X260.502 Y81.98 E177.97922
G1 X260.676 Y82.73 E178.00483
G1 X260.677 Y217.464 E182.4861
G1 X260.172 Y218.905 E182.53688
G1 X259.61 Y220.059 E182.57958
G1 X258.246 Y221.423 E182.64373
G1 X257.407 Y221.89 E182.67567
G1 X256.075 Y222.439 E182.72359
G1 X255.368 Y222.556 E182.74742
G1 X44.433 Y222.576 E189.76315
G1 X42.995 Y222.072 E189.81383
G1 X41.841 Y221.51 E189.85652
G1 X40.476 Y220.145 E189.92073
G1 X39.981 Y219.246 E189.95486
G1 X39.498 Y218.02 E189.99869
G1 X39.324 Y217.27 E190.0243
G1 X39.327 Y83.007 E194.4899
G1 X39.655 Y81.366 E194.54556
G1 X40.431 Y79.9 E194.60073
G1 X41.755 Y78.576 E194.66301
G0 F6000 X41.998 Y78.899
G1 F1200 X42.802 Y78.453 E194.69359
G1 X43.97 Y77.988 E194.7354
G1 X44.677 Y77.824 E194.75954
G1 X255.498 Y77.824 E201.77147
G1 X256.83 Y78.288 E201.81839
G1 X257.924 Y78.821 E201.85886
G1 X259.201 Y80.098 E201.91893
G1 X259.647 Y80.902 E201.94951
G1 X260.112 Y82.07 E201.99132
G1 X260.276 Y82.777 E202.01546
G1 X260.277 Y217.395 E206.49288
G1 X259.812 Y218.73 E206.53989
G1 X259.279 Y219.824 E206.58037
G1 X258.001 Y221.102 E206.64048
G1 X257.254 Y221.52 E206.66895
G1 X255.964 Y222.052 E206.71536
G1 X255.303 Y222.161 E206.73765
G1 X44.502 Y222.176 E213.74892
G1 X43.17 Y221.712 E213.79583
G1 X42.076 Y221.179 E213.8363
G1 X40.799 Y219.902 E213.89637
G1 X40.353 Y219.098 E213.92695
G1 X39.888 Y217.93 E213.96876
G1 X39.724 Y217.223 E213.9929
G1 X39.727 Y83.045 E218.45568
G1 X40.035 Y81.504 E218.50795
G1 X40.757 Y80.14 E218.55928
G1 X41.998 Y78.899 E218.61765
G0 F6000 X42.242 Y79.221
G1 F1200 X42.95 Y78.825 E218.64463
G1 X44.118 Y78.36 E218.68645
G1 X44.722 Y78.224 E218.70704
G1 X255.429 Y78.224 E225.71518
G1 X256.698 Y78.666 E225.75988
G1 X257.688 Y79.151 E225.79654
G1 X258.879 Y80.342 E225.85256
G1 X259.275 Y81.05 E225.87955
G1 X259.74 Y82.218 E225.92136
G1 X259.876 Y82.822 E225.94195
G1 X259.877 Y217.326 E230.41557
G1 X259.434 Y218.598 E230.46037
G1 X258.949 Y219.588 E230.49704
G1 X257.755 Y220.782 E230.5532
G1 X257.102 Y221.15 E230.57813
G1 X255.855 Y221.664 E230.62299
G1 X255.238 Y221.766 E230.64379
G1 X44.571 Y221.776 E237.6506
G1 X43.302 Y221.334 E237.6953
G1 X42.312 Y220.849 E237.73196
G1 X41.121 Y219.658 E237.78799
G1 X40.725 Y218.95 E237.81497
G1 X40.26 Y217.782 E237.85678
G1 X40.124 Y217.178 E237.87737
G1 X40.127 Y83.083 E242.33739
G1 X40.415 Y81.642 E242.38627
G1 X41.083 Y80.38 E242.43376
G1 X42.242 Y79.221 E242.48827
G0 F6000 X42.487 Y79.542
G1 F1200 X43.098 Y79.197 E242.51161
G1 X44.266 Y78.732 E242.55342
G1 X44.766 Y78.624 E242.57044
G1 X255.36 Y78.624 E249.57482
G1 X256.566 Y79.044 E249.6173
G1 X257.452 Y79.481 E249.65016
G1 X258.558 Y80.587 E249.70218
G1 X258.903 Y81.198 E249.72552
G1 X259.368 Y82.366 E249.76733
G1 X259.476 Y82.866 E249.78434
G1 X259.477 Y217.257 E254.25421
G1 X259.056 Y218.466 E254.29679
G1 X258.619 Y219.352 E254.32964
G1 X257.511 Y220.46 E254.38176
G1 X256.949 Y220.78 E254.40327
G1 X255.744 Y221.277 E254.44662
G1 X255.173 Y221.371 E254.46587
G1 X44.64 Y221.376 E261.46823
G1 X43.434 Y220.956 E261.5107
G1 X42.548 Y220.519 E261.54356
G1 X41.442 Y219.413 E261.59558
G1 X41.097 Y218.802 E261.61892
G1 X40.632 Y217.634 E261.66073
G1 X40.524 Y217.134 E261.67775
G1 X40.527 Y83.121 E266.13504
G1 X40.795 Y81.78 E266.18052
G1 X41.409 Y80.62 E266.22417
G1 X42.487 Y79.542 E266.27488
G0 F6000 X42.733 Y79.862
G1 F1200 X43.248 Y79.568 E266.2946
G1 X44.351 Y79.123 E266.33416
G1 X44.809 Y79.024 E266.34975
G1 X255.292 Y79.024 E273.35044
G1 X256.389 Y79.403 E273.38904
G1 X257.216 Y79.811 E273.41971
G1 X258.238 Y80.833 E273.46779
G1 X258.532 Y81.348 E273.48751
G1 X258.977 Y82.451 E273.52707
G1 X259.076 Y82.909 E273.54265
G1 X259.077 Y217.189 E278.00883
G1 X258.697 Y218.289 E278.04753
G1 X258.289 Y219.116 E278.0782
G1 X257.267 Y220.138 E278.12628
G1 X256.751 Y220.432 E278.14603
G1 X255.635 Y220.889 E278.18614
G1 X255.108 Y220.976 E278.2039
G1 X44.708 Y220.976 E285.20184
G1 X43.611 Y220.597 E285.24044
G1 X42.784 Y220.189 E285.27111
G1 X41.762 Y219.167 E285.31918
G1 X41.468 Y218.652 E285.33891
G1 X41.023 Y217.549 E285.37846
G1 X40.924 Y217.091 E285.39405
G1 X40.927 Y83.159 E289.84865
G1 X41.175 Y81.918 E289.89074
G1 X41.735 Y80.86 E289.93055
G1 X42.733 Y79.862 E289.9775
G0 F6000 X42.978 Y80.183
G1 F1200 X43.4 Y79.938 E289.99372
G1 X44.436 Y79.514 E290.03096
G1 X44.852 Y79.424 E290.04511
G1 X255.226 Y79.424 E297.04218
G1 X256.212 Y79.762 E297.07685
G1 X256.98 Y80.141 E297.10533
G1 X257.917 Y81.078 E297.14941
G1 X258.162 Y81.5 E297.16564
G1 X258.586 Y82.536 E297.20287
G1 X258.676 Y82.952 E297.21702
G1 X258.677 Y217.123 E301.67957
G1 X258.338 Y218.112 E301.71434
G1 X257.959 Y218.88 E301.74283
G1 X257.022 Y219.817 E301.7869
G1 X256.6 Y220.062 E301.80313
G1 X255.527 Y220.501 E301.84169
G1 X255.108 Y220.576 E301.85585
G1 X44.774 Y220.576 E308.85159
G1 X43.788 Y220.238 E308.88625
G1 X43.02 Y219.859 E308.91474
G1 X42.083 Y218.922 E308.95881
G1 X41.838 Y218.5 E308.97504
G1 X41.414 Y217.464 E309.01227
G1 X41.324 Y217.048 E309.02643
G1 X41.327 Y83.197 E313.47833
G1 X41.555 Y82.056 E313.51703
G1 X42.061 Y81.1 E313.55301
G1 X42.978 Y80.183 E313.59614
G0 F6000 X43.225 Y80.502
G1 F1200 X43.552 Y80.308 E313.60879
G1 X44.588 Y79.884 E313.64602
G1 X44.892 Y79.824 E313.65632
G1 X255.159 Y79.824 E320.64983
G1 X256.035 Y80.121 E320.6806
G1 X256.744 Y80.471 E320.7069
G1 X257.598 Y81.325 E320.74707
G1 X257.792 Y81.652 E320.75971
G1 X258.216 Y82.688 E320.79694
G1 X258.276 Y82.992 E320.80725
G1 X258.277 Y217.056 E325.26624
G1 X257.979 Y217.935 E325.29711
G1 X257.629 Y218.644 E325.3234
G1 X256.775 Y219.498 E325.36357
G1 X256.448 Y219.692 E325.37622
G1 X255.412 Y220.116 E325.41345
G1 X255.108 Y220.176 E325.42376
G1 X44.841 Y220.176 E332.41727
G1 X43.965 Y219.879 E332.44803
G1 X43.256 Y219.529 E332.47433
G1 X42.402 Y218.675 E332.5145
G1 X42.208 Y218.348 E332.52715
G1 X41.784 Y217.312 E332.56438
G1 X41.724 Y217.008 E332.57468
G1 X41.727 Y83.235 E337.02399
G1 X41.935 Y82.194 E337.0593
G1 X42.387 Y81.34 E337.09144
G1 X43.225 Y80.502 E337.13085
G0 F6000 X43.473 Y80.82
G1 F1200 X43.704 Y80.678 E337.13987
G1 X44.74 Y80.254 E337.1771
G1 X44.892 Y80.224 E337.18226
G1 X255.094 Y80.224 E344.1736
G1 X255.858 Y80.48 E344.2004
G1 X256.508 Y80.801 E344.22452
G1 X257.28 Y81.573 E344.26083
G1 X257.422 Y81.804 E344.26985
G1 X257.846 Y82.84 E344.30708
G1 X257.876 Y82.992 E344.31223
G1 X257.877 Y216.991 E348.76906
G1 X257.62 Y217.758 E348.79596
G1 X257.299 Y218.408 E348.82007
G1 X256.527 Y219.18 E348.85638
G1 X256.296 Y219.322 E348.8654
G1 X255.26 Y219.746 E348.90264
G1 X255.108 Y219.776 E348.90779
G1 X44.906 Y219.776 E355.89914
G1 X44.142 Y219.52 E355.92593
G1 X43.492 Y219.199 E355.95005
G1 X42.72 Y218.427 E355.98636
G1 X42.578 Y218.196 E355.99538
G1 X42.154 Y217.16 E356.03261
G1 X42.124 Y217.008 E356.03776
G1 X42.127 Y83.273 E360.48581
G1 X42.315 Y82.332 E360.51772
G1 X42.713 Y81.58 E360.54602
G1 X43.473 Y80.82 E360.58177
G0 F6000 X43.724 Y81.135
G1 F1200 X43.856 Y81.048 E360.58703
G1 X44.892 Y80.624 E360.62426
G1 X255.029 Y80.624 E367.61344
G1 X255.681 Y80.839 E367.63628
G1 X256.272 Y81.131 E367.6582
G1 X256.965 Y81.824 E367.6908
G1 X257.052 Y81.956 E367.69606
G1 X257.476 Y82.992 E367.73329
G1 X257.477 Y216.926 E372.18795
G1 X257.261 Y217.581 E372.21089
G1 X256.969 Y218.172 E372.23282
G1 X256.276 Y218.865 E372.26541
G1 X256.144 Y218.952 E372.27067
G1 X255.108 Y219.376 E372.3079
G1 X44.971 Y219.376 E379.29709
G1 X44.319 Y219.161 E379.31992
G1 X43.728 Y218.869 E379.34185
G1 X43.035 Y218.176 E379.37444
G1 X42.948 Y218.044 E379.3797
G1 X42.524 Y217.008 E379.41693
G1 X42.527 Y83.311 E383.86371
G1 X42.695 Y82.47 E383.89224
G1 X43.039 Y81.82 E383.9167
G1 X43.724 Y81.135 E383.94892
G0 F6000 X44.007 Y81.418
G1 F1200 X44.97 Y81.024 E383.98353
G1 X254.965 Y81.024 E390.96799
G1 X255.556 Y81.219 E390.98869
G1 X256.034 Y81.459 E391.00648
G1 X256.682 Y82.107 E391.03696
G1 X257.076 Y83.07 E391.07156
G1 X257.077 Y216.862 E395.5215
G1 X256.881 Y217.456 E395.54231
G1 X256.641 Y217.934 E395.5601
G1 X255.993 Y218.582 E395.59058
G1 X255.03 Y218.976 E395.62518
G1 X45.035 Y218.976 E402.60965
G1 X44.444 Y218.781 E402.63034
G1 X43.966 Y218.541 E402.64813
G1 X43.318 Y217.893 E402.67861
G1 X42.924 Y216.93 E402.71322
G1 X42.927 Y83.349 E407.15614
G1 X43.075 Y82.608 E407.18128
G1 X43.365 Y82.06 E407.2019
G1 X44.007 Y81.418 E407.23209
G0 F6000 X44.234 Y81.757
G1 F1200 X45.048 Y81.424 E407.26135
G1 X254.901 Y81.424 E414.24109
G1 X255.376 Y81.576 E414.25767
G1 X255.796 Y81.787 E414.27331
G1 X256.343 Y82.334 E414.29904
G1 X256.676 Y83.148 E414.32829
G1 X256.677 Y216.798 E418.7735
G1 X256.524 Y217.276 E418.7902
G1 X256.313 Y217.696 E418.80583
G1 X255.766 Y218.243 E418.83156
G1 X254.952 Y218.576 E418.86081
G1 X45.099 Y218.576 E425.84055
G1 X44.624 Y218.424 E425.85714
G1 X44.204 Y218.213 E425.87277
G1 X43.657 Y217.666 E425.8985
G1 X43.324 Y216.852 E425.92775
G1 X43.327 Y83.387 E430.36682
